( VECTRIC POST REVISION)
( 1264C0CC338BA3BE9BC0E17FB559AAC6)
( Drill 3MM )
( File created: Tuesday January 11 2022 - 09:28 PM)
( for Next Wave Automation from Vectric )
( Material Size)
( X= 65.000, Y= 400.000, Z= 12.700)
( Z Origin for Material  = Material Surface)
( XY Origin for Material = Bottom Left Corner)
(      XY Origin Position  = X:0.000, Y:0.000)
( Home Position)
(  X =  X0.000 Y =  Y0.000 Z =  Z20.320)
( Safe Z = 5.080)
()
(Toolpaths used in this file:)
(Drill 3MM)
(Tool used in this file: )
(17 = Drill {118.0° - 3 mm})
(Drill {118.0° - 3 mm})
(|---------------------------------------)
(| Toolpath:- 'Drill 3MM'    )
(|---------------------------------------)
G90
G21
F1873.8
G0  Z20.320
S16000
M3
G04 P5
F1873.8
G00 X32.240 Y79.088 Z5.080
F600.0
G1 X32.240 Y79.088 Z-4.233
F1873.8
G00 X32.240 Y79.088 Z0.000
F600.0
G1 X32.240 Y79.088 Z-8.467
F1873.8
G00 X32.240 Y79.088 Z0.000
F600.0
G1 X32.240 Y79.088 Z-12.700
F1873.8
G00 X32.240 Y79.088 Z5.080
F1873.8
G00 X32.240 Y165.199 Z5.080
F600.0
G1 X32.240 Y165.199 Z-4.233
F1873.8
G00 X32.240 Y165.199 Z0.000
F600.0
G1 X32.240 Y165.199 Z-8.467
F1873.8
G00 X32.240 Y165.199 Z0.000
F600.0
G1 X32.240 Y165.199 Z-12.700
F1873.8
G00 X32.240 Y165.199 Z5.080
F1873.8
G00 X17.702 Y258.915 Z5.080
F600.0
G1 X17.702 Y258.915 Z-4.233
F1873.8
G00 X17.702 Y258.915 Z0.000
F600.0
G1 X17.702 Y258.915 Z-8.467
F1873.8
G00 X17.702 Y258.915 Z0.000
F600.0
G1 X17.702 Y258.915 Z-12.700
F1873.8
G00 X17.702 Y258.915 Z5.080
F1873.8
G00 X17.613 Y274.980 Z5.080
F600.0
G1 X17.613 Y274.980 Z-4.233
F1873.8
G00 X17.613 Y274.980 Z0.000
F600.0
G1 X17.613 Y274.980 Z-8.467
F1873.8
G00 X17.613 Y274.980 Z0.000
F600.0
G1 X17.613 Y274.980 Z-12.700
F1873.8
G00 X17.613 Y274.980 Z5.080
F1873.8
G00 X47.613 Y275.153 Z5.080
F600.0
G1 X47.613 Y275.153 Z-4.233
F1873.8
G00 X47.613 Y275.153 Z0.000
F600.0
G1 X47.613 Y275.153 Z-8.467
F1873.8
G00 X47.613 Y275.153 Z0.000
F600.0
G1 X47.613 Y275.153 Z-12.700
F1873.8
G00 X47.613 Y275.153 Z5.080
F1873.8
G00 X47.653 Y258.915 Z5.080
F600.0
G1 X47.653 Y258.915 Z-4.233
F1873.8
G00 X47.653 Y258.915 Z0.000
F600.0
G1 X47.653 Y258.915 Z-8.467
F1873.8
G00 X47.653 Y258.915 Z0.000
F600.0
G1 X47.653 Y258.915 Z-12.700
F1873.8
G00 X47.653 Y258.915 Z5.080
F1873.8
G00 X47.613 Y346.076 Z5.080
F600.0
G1 X47.613 Y346.076 Z-4.233
F1873.8
G00 X47.613 Y346.076 Z0.000
F600.0
G1 X47.613 Y346.076 Z-8.467
F1873.8
G00 X47.613 Y346.076 Z0.000
F600.0
G1 X47.613 Y346.076 Z-12.700
F1873.8
G00 X47.613 Y346.076 Z5.080
F1873.8
G00 X47.702 Y362.615 Z5.080
F600.0
G1 X47.702 Y362.615 Z-4.233
F1873.8
G00 X47.702 Y362.615 Z0.000
F600.0
G1 X47.702 Y362.615 Z-8.467
F1873.8
G00 X47.702 Y362.615 Z0.000
F600.0
G1 X47.702 Y362.615 Z-12.700
F1873.8
G00 X47.702 Y362.615 Z5.080
F1873.8
G00 X17.702 Y362.615 Z5.080
F600.0
G1 X17.702 Y362.615 Z-4.233
F1873.8
G00 X17.702 Y362.615 Z0.000
F600.0
G1 X17.702 Y362.615 Z-8.467
F1873.8
G00 X17.702 Y362.615 Z0.000
F600.0
G1 X17.702 Y362.615 Z-12.700
F1873.8
G00 X17.702 Y362.615 Z5.080
F1873.8
G00 X17.613 Y346.249 Z5.080
F600.0
G1 X17.613 Y346.249 Z-4.233
F1873.8
G00 X17.613 Y346.249 Z0.000
F600.0
G1 X17.613 Y346.249 Z-8.467
F1873.8
G00 X17.613 Y346.249 Z0.000
F600.0
G1 X17.613 Y346.249 Z-12.700
F1873.8
G00 X17.613 Y346.249 Z5.080
G00  Z20.320
G00  X0.000  Y0.000
M02
