( VECTRIC POST REVISION)
( 1264C0CC338BA3BE9BC0E17FB559AAC6)
( Drill 2MM )
( File created: Tuesday January 11 2022 - 09:28 PM)
( for Next Wave Automation from Vectric )
( Material Size)
( X= 65.000, Y= 400.000, Z= 12.700)
( Z Origin for Material  = Material Surface)
( XY Origin for Material = Bottom Left Corner)
(      XY Origin Position  = X:0.000, Y:0.000)
( Home Position)
(  X =  X0.000 Y =  Y0.000 Z =  Z20.320)
( Safe Z = 5.080)
()
(Toolpaths used in this file:)
(Drill 2MM)
(Tool used in this file: )
(1 = Drill {118.0° - 2 mm})
(Drill {118.0° - 2 mm})
(|---------------------------------------)
(| Toolpath:- 'Drill 2MM'    )
(|---------------------------------------)
G90
G21
F1873.8
G0  Z20.320
S16000
M3
G04 P5
F1873.8
G00 X17.555 Y196.910 Z5.080
F600.0
G1 X17.555 Y196.910 Z-1.814
F1873.8
G00 X17.555 Y196.910 Z0.000
F600.0
G1 X17.555 Y196.910 Z-3.629
F1873.8
G00 X17.555 Y196.910 Z0.000
F600.0
G1 X17.555 Y196.910 Z-5.443
F1873.8
G00 X17.555 Y196.910 Z0.000
F600.0
G1 X17.555 Y196.910 Z-7.257
F1873.8
G00 X17.555 Y196.910 Z0.000
F600.0
G1 X17.555 Y196.910 Z-9.071
F1873.8
G00 X17.555 Y196.910 Z0.000
F600.0
G1 X17.555 Y196.910 Z-10.886
F1873.8
G00 X17.555 Y196.910 Z0.000
F600.0
G1 X17.555 Y196.910 Z-12.700
F1873.8
G00 X17.555 Y196.910 Z5.080
F1873.8
G00 X17.555 Y220.910 Z5.080
F600.0
G1 X17.555 Y220.910 Z-1.814
F1873.8
G00 X17.555 Y220.910 Z0.000
F600.0
G1 X17.555 Y220.910 Z-3.629
F1873.8
G00 X17.555 Y220.910 Z0.000
F600.0
G1 X17.555 Y220.910 Z-5.443
F1873.8
G00 X17.555 Y220.910 Z0.000
F600.0
G1 X17.555 Y220.910 Z-7.257
F1873.8
G00 X17.555 Y220.910 Z0.000
F600.0
G1 X17.555 Y220.910 Z-9.071
F1873.8
G00 X17.555 Y220.910 Z0.000
F600.0
G1 X17.555 Y220.910 Z-10.886
F1873.8
G00 X17.555 Y220.910 Z0.000
F600.0
G1 X17.555 Y220.910 Z-12.700
F1873.8
G00 X17.555 Y220.910 Z5.080
F1873.8
G00 X47.555 Y220.910 Z5.080
F600.0
G1 X47.555 Y220.910 Z-1.814
F1873.8
G00 X47.555 Y220.910 Z0.000
F600.0
G1 X47.555 Y220.910 Z-3.629
F1873.8
G00 X47.555 Y220.910 Z0.000
F600.0
G1 X47.555 Y220.910 Z-5.443
F1873.8
G00 X47.555 Y220.910 Z0.000
F600.0
G1 X47.555 Y220.910 Z-7.257
F1873.8
G00 X47.555 Y220.910 Z0.000
F600.0
G1 X47.555 Y220.910 Z-9.071
F1873.8
G00 X47.555 Y220.910 Z0.000
F600.0
G1 X47.555 Y220.910 Z-10.886
F1873.8
G00 X47.555 Y220.910 Z0.000
F600.0
G1 X47.555 Y220.910 Z-12.700
F1873.8
G00 X47.555 Y220.910 Z5.080
F1873.8
G00 X47.555 Y196.910 Z5.080
F600.0
G1 X47.555 Y196.910 Z-1.814
F1873.8
G00 X47.555 Y196.910 Z0.000
F600.0
G1 X47.555 Y196.910 Z-3.629
F1873.8
G00 X47.555 Y196.910 Z0.000
F600.0
G1 X47.555 Y196.910 Z-5.443
F1873.8
G00 X47.555 Y196.910 Z0.000
F600.0
G1 X47.555 Y196.910 Z-7.257
F1873.8
G00 X47.555 Y196.910 Z0.000
F600.0
G1 X47.555 Y196.910 Z-9.071
F1873.8
G00 X47.555 Y196.910 Z0.000
F600.0
G1 X47.555 Y196.910 Z-10.886
F1873.8
G00 X47.555 Y196.910 Z0.000
F600.0
G1 X47.555 Y196.910 Z-12.700
F1873.8
G00 X47.555 Y196.910 Z5.080
G00  Z20.320
G00  X0.000  Y0.000
M02
