( VECTRIC POST REVISION)
( 1264C0CC338BA3BE9BC0E17FB559AAC6)
( Mill 5MM )
( File created: Tuesday January 11 2022 - 09:28 PM)
( for Next Wave Automation from Vectric )
( Material Size)
( X= 65.000, Y= 400.000, Z= 12.700)
( Z Origin for Material  = Material Surface)
( XY Origin for Material = Bottom Left Corner)
(      XY Origin Position  = X:0.000, Y:0.000)
( Home Position)
(  X =  X0.000 Y =  Y0.000 Z =  Z20.320)
( Safe Z = 5.080)
()
(Toolpaths used in this file:)
(Guide)
(Pocket Holes)
(Pocket Ring)
(Final)
(Tool used in this file: )
(4 = End Mill {5 mm})
(End Mill {5 mm})
(|---------------------------------------)
(| Toolpath:- 'Guide'    )
(|---------------------------------------)
G90
G21
F2000.0
G0  Z20.320
S18000
M3
G04 P5
F2000.0
G00 X52.715 Y260.367 Z5.080
F500.0
G1 X52.715 Y260.367 Z-2.000
F2000.0
G01 X12.510 Y260.367 Z-2.000
G01 X12.510 Y257.462 Z-2.000
G01 X52.715 Y257.462 Z-2.000
G01 X52.715 Y260.367 Z-2.000
F2000.0
G01 X55.847 Y263.481 Z-2.000
F2000.0
G01 X55.847 Y263.499 Z-2.000
G01 X55.829 Y263.499 Z-2.000
F2000.0
G02 X54.063 Y262.767 I-1.766 J1.766
F2000.0
G01 X11.162 Y262.767 Z-2.000
F2000.0
G02 X9.396 Y263.499 I0.000 J2.498
F2000.0
G01 X9.379 Y263.499 Z-2.000
G01 X9.379 Y263.481 Z-2.000
F2000.0
G02 X10.110 Y261.715 I-1.766 J-1.766
F2000.0
G01 X10.110 Y256.114 Z-2.000
F2000.0
G02 X9.379 Y254.348 I-2.498 J0.000
F2000.0
G01 X9.379 Y254.331 Z-2.000
G01 X9.396 Y254.331 Z-2.000
F2000.0
G02 X11.162 Y255.062 I1.766 J-1.766
F2000.0
G01 X54.063 Y255.062 Z-2.000
F2000.0
G02 X55.829 Y254.331 I0.000 J-2.497
F2000.0
G01 X55.847 Y254.331 Z-2.000
G01 X55.847 Y254.348 Z-2.000
F2000.0
G02 X55.115 Y256.114 I1.766 J1.766
F2000.0
G01 X55.115 Y261.715 Z-2.000
F2000.0
G02 X55.847 Y263.481 I2.498 J0.000
F2000.0
G00 X55.847 Y263.481 Z5.080
F2000.0
G00 X50.315 Y367.967 Z5.080
F500.0
G1 X50.315 Y367.967 Z-2.000
F2000.0
G01 X14.910 Y367.967 Z-2.000
G01 X14.910 Y363.562 Z-2.000
G01 X50.315 Y363.562 Z-2.000
G01 X50.315 Y367.967 Z-2.000
F2000.0
G01 X52.715 Y370.367 Z-2.000
F2000.0
G01 X12.510 Y370.367 Z-2.000
G01 X12.510 Y361.162 Z-2.000
G01 X52.715 Y361.162 Z-2.000
G01 X52.715 Y370.367 Z-2.000
F2000.0
G01 X55.115 Y372.765 Z-2.000
F2000.0
G01 X55.113 Y372.767 Z-2.000
G01 X10.113 Y372.767 Z-2.000
G01 X10.110 Y372.765 Z-2.000
G01 X10.110 Y359.814 Z-2.000
F2000.0
G02 X9.379 Y358.048 I-2.498 J0.000
F2000.0
G01 X9.379 Y358.031 Z-2.000
G01 X9.396 Y358.031 Z-2.000
F2000.0
G02 X11.162 Y358.762 I1.766 J-1.766
F2000.0
G01 X54.063 Y358.762 Z-2.000
F2000.0
G02 X55.829 Y358.031 I0.000 J-2.497
F2000.0
G01 X55.847 Y358.031 Z-2.000
G01 X55.847 Y358.048 Z-2.000
F2000.0
G02 X55.115 Y359.814 I1.766 J1.766
F2000.0
G01 X55.115 Y372.765 Z-2.000
F2000.0
G00 X55.115 Y372.765 Z5.080
(|---------------------------------------)
(| Toolpath:- 'Pocket Holes'     )
(|---------------------------------------)
S18000
G04 P5
F2000.0
G00 X31.615 Y148.236 Z5.080
F500.0
G1 X31.615 Y148.236 Z-1.814
F2000.0
G01 X31.615 Y143.486 Z-1.814
F2000.0
G03 X32.240 Y142.861 I0.625 J0.000
G03 X32.865 Y143.486 I0.000 J0.625
F2000.0
G01 X32.865 Y148.236 Z-1.814
F2000.0
G03 X32.240 Y148.861 I-0.625 J0.000
G03 X31.615 Y148.236 I0.000 J-0.625
F2000.0
G00 X31.615 Y148.236 Z5.080
F500.0
G1 X31.615 Y148.236 Z-3.629
F2000.0
G01 X31.615 Y143.486 Z-3.629
F2000.0
G03 X32.240 Y142.861 I0.625 J0.000
G03 X32.865 Y143.486 I0.000 J0.625
F2000.0
G01 X32.865 Y148.236 Z-3.629
F2000.0
G03 X32.240 Y148.861 I-0.625 J0.000
G03 X31.615 Y148.236 I0.000 J-0.625
F2000.0
G00 X31.615 Y148.236 Z5.080
F500.0
G1 X31.615 Y148.236 Z-5.443
F2000.0
G01 X31.615 Y143.486 Z-5.443
F2000.0
G03 X32.240 Y142.861 I0.625 J0.000
G03 X32.865 Y143.486 I0.000 J0.625
F2000.0
G01 X32.865 Y148.236 Z-5.443
F2000.0
G03 X32.240 Y148.861 I-0.625 J0.000
G03 X31.615 Y148.236 I0.000 J-0.625
F2000.0
G00 X31.615 Y148.236 Z5.080
F500.0
G1 X31.615 Y148.236 Z-7.257
F2000.0
G01 X31.615 Y143.486 Z-7.257
F2000.0
G03 X32.240 Y142.861 I0.625 J0.000
G03 X32.865 Y143.486 I0.000 J0.625
F2000.0
G01 X32.865 Y148.236 Z-7.257
F2000.0
G03 X32.240 Y148.861 I-0.625 J0.000
G03 X31.615 Y148.236 I0.000 J-0.625
F2000.0
G00 X31.615 Y148.236 Z5.080
F500.0
G1 X31.615 Y148.236 Z-9.071
F2000.0
G01 X31.615 Y143.486 Z-9.071
F2000.0
G03 X32.240 Y142.861 I0.625 J0.000
G03 X32.865 Y143.486 I0.000 J0.625
F2000.0
G01 X32.865 Y148.236 Z-9.071
F2000.0
G03 X32.240 Y148.861 I-0.625 J0.000
G03 X31.615 Y148.236 I0.000 J-0.625
F2000.0
G00 X31.615 Y148.236 Z5.080
F500.0
G1 X31.615 Y148.236 Z-10.886
F2000.0
G01 X31.615 Y143.486 Z-10.886
F2000.0
G03 X32.240 Y142.861 I0.625 J0.000
G03 X32.865 Y143.486 I0.000 J0.625
F2000.0
G01 X32.865 Y148.236 Z-10.886
F2000.0
G03 X32.240 Y148.861 I-0.625 J0.000
G03 X31.615 Y148.236 I0.000 J-0.625
F2000.0
G00 X31.615 Y148.236 Z5.080
F500.0
G1 X31.615 Y148.236 Z-12.700
F2000.0
G01 X31.615 Y143.486 Z-12.700
F2000.0
G03 X32.240 Y142.861 I0.625 J0.000
G03 X32.865 Y143.486 I0.000 J0.625
F2000.0
G01 X32.865 Y148.236 Z-12.700
F2000.0
G03 X32.240 Y148.861 I-0.625 J0.000
G03 X31.615 Y148.236 I0.000 J-0.625
F2000.0
G00 X31.615 Y148.236 Z5.080
F2000.0
G00 X32.298 Y129.557 Z5.080
F500.0
G1 X32.298 Y129.557 Z-1.814
F2000.0
G03 X32.798 Y130.057 I0.000 J0.500
G03 X32.298 Y130.557 I-0.500 J0.000
G03 X31.798 Y130.057 I0.000 J-0.500
G03 X32.298 Y129.557 I0.500 J0.000
F2000.0
G00 X32.298 Y129.557 Z5.080
F500.0
G1 X32.298 Y129.557 Z-3.629
F2000.0
G03 X32.798 Y130.057 I0.000 J0.500
G03 X32.298 Y130.557 I-0.500 J0.000
G03 X31.798 Y130.057 I0.000 J-0.500
G03 X32.298 Y129.557 I0.500 J0.000
F2000.0
G00 X32.298 Y129.557 Z5.080
F500.0
G1 X32.298 Y129.557 Z-5.443
F2000.0
G03 X32.798 Y130.057 I0.000 J0.500
G03 X32.298 Y130.557 I-0.500 J0.000
G03 X31.798 Y130.057 I0.000 J-0.500
G03 X32.298 Y129.557 I0.500 J0.000
F2000.0
G00 X32.298 Y129.557 Z5.080
F500.0
G1 X32.298 Y129.557 Z-7.257
F2000.0
G03 X32.798 Y130.057 I0.000 J0.500
G03 X32.298 Y130.557 I-0.500 J0.000
G03 X31.798 Y130.057 I0.000 J-0.500
G03 X32.298 Y129.557 I0.500 J0.000
F2000.0
G00 X32.298 Y129.557 Z5.080
F500.0
G1 X32.298 Y129.557 Z-9.071
F2000.0
G03 X32.798 Y130.057 I0.000 J0.500
G03 X32.298 Y130.557 I-0.500 J0.000
G03 X31.798 Y130.057 I0.000 J-0.500
G03 X32.298 Y129.557 I0.500 J0.000
F2000.0
G00 X32.298 Y129.557 Z5.080
F500.0
G1 X32.298 Y129.557 Z-10.886
F2000.0
G03 X32.798 Y130.057 I0.000 J0.500
G03 X32.298 Y130.557 I-0.500 J0.000
G03 X31.798 Y130.057 I0.000 J-0.500
G03 X32.298 Y129.557 I0.500 J0.000
F2000.0
G00 X32.298 Y129.557 Z5.080
F500.0
G1 X32.298 Y129.557 Z-12.700
F2000.0
G03 X32.798 Y130.057 I0.000 J0.500
G03 X32.298 Y130.557 I-0.500 J0.000
G03 X31.798 Y130.057 I0.000 J-0.500
G03 X32.298 Y129.557 I0.500 J0.000
F2000.0
G00 X32.298 Y129.557 Z5.080
F2000.0
G00 X31.615 Y62.125 Z5.080
F500.0
G1 X31.615 Y62.125 Z-1.814
F2000.0
G01 X31.615 Y57.375 Z-1.814
F2000.0
G03 X32.240 Y56.750 I0.625 J0.000
G03 X32.865 Y57.375 I0.000 J0.625
F2000.0
G01 X32.865 Y62.125 Z-1.814
F2000.0
G03 X32.240 Y62.750 I-0.625 J0.000
G03 X31.615 Y62.125 I0.000 J-0.625
F2000.0
G00 X31.615 Y62.125 Z5.080
F500.0
G1 X31.615 Y62.125 Z-3.629
F2000.0
G01 X31.615 Y57.375 Z-3.629
F2000.0
G03 X32.240 Y56.750 I0.625 J0.000
G03 X32.865 Y57.375 I0.000 J0.625
F2000.0
G01 X32.865 Y62.125 Z-3.629
F2000.0
G03 X32.240 Y62.750 I-0.625 J0.000
G03 X31.615 Y62.125 I0.000 J-0.625
F2000.0
G00 X31.615 Y62.125 Z5.080
F500.0
G1 X31.615 Y62.125 Z-5.443
F2000.0
G01 X31.615 Y57.375 Z-5.443
F2000.0
G03 X32.240 Y56.750 I0.625 J0.000
G03 X32.865 Y57.375 I0.000 J0.625
F2000.0
G01 X32.865 Y62.125 Z-5.443
F2000.0
G03 X32.240 Y62.750 I-0.625 J0.000
G03 X31.615 Y62.125 I0.000 J-0.625
F2000.0
G00 X31.615 Y62.125 Z5.080
F500.0
G1 X31.615 Y62.125 Z-7.257
F2000.0
G01 X31.615 Y57.375 Z-7.257
F2000.0
G03 X32.240 Y56.750 I0.625 J0.000
G03 X32.865 Y57.375 I0.000 J0.625
F2000.0
G01 X32.865 Y62.125 Z-7.257
F2000.0
G03 X32.240 Y62.750 I-0.625 J0.000
G03 X31.615 Y62.125 I0.000 J-0.625
F2000.0
G00 X31.615 Y62.125 Z5.080
F500.0
G1 X31.615 Y62.125 Z-9.071
F2000.0
G01 X31.615 Y57.375 Z-9.071
F2000.0
G03 X32.240 Y56.750 I0.625 J0.000
G03 X32.865 Y57.375 I0.000 J0.625
F2000.0
G01 X32.865 Y62.125 Z-9.071
F2000.0
G03 X32.240 Y62.750 I-0.625 J0.000
G03 X31.615 Y62.125 I0.000 J-0.625
F2000.0
G00 X31.615 Y62.125 Z5.080
F500.0
G1 X31.615 Y62.125 Z-10.886
F2000.0
G01 X31.615 Y57.375 Z-10.886
F2000.0
G03 X32.240 Y56.750 I0.625 J0.000
G03 X32.865 Y57.375 I0.000 J0.625
F2000.0
G01 X32.865 Y62.125 Z-10.886
F2000.0
G03 X32.240 Y62.750 I-0.625 J0.000
G03 X31.615 Y62.125 I0.000 J-0.625
F2000.0
G00 X31.615 Y62.125 Z5.080
F500.0
G1 X31.615 Y62.125 Z-12.700
F2000.0
G01 X31.615 Y57.375 Z-12.700
F2000.0
G03 X32.240 Y56.750 I0.625 J0.000
G03 X32.865 Y57.375 I0.000 J0.625
F2000.0
G01 X32.865 Y62.125 Z-12.700
F2000.0
G03 X32.240 Y62.750 I-0.625 J0.000
G03 X31.615 Y62.125 I0.000 J-0.625
F2000.0
G00 X31.615 Y62.125 Z5.080
F2000.0
G00 X32.298 Y44.446 Z5.080
F500.0
G1 X32.298 Y44.446 Z-1.814
F2000.0
G03 X31.798 Y43.946 I0.000 J-0.500
G03 X32.298 Y43.446 I0.500 J0.000
G03 X32.798 Y43.946 I0.000 J0.500
G03 X32.298 Y44.446 I-0.500 J0.000
F2000.0
G00 X32.298 Y44.446 Z5.080
F500.0
G1 X32.298 Y44.446 Z-3.629
F2000.0
G03 X31.798 Y43.946 I0.000 J-0.500
G03 X32.298 Y43.446 I0.500 J0.000
G03 X32.798 Y43.946 I0.000 J0.500
G03 X32.298 Y44.446 I-0.500 J0.000
F2000.0
G00 X32.298 Y44.446 Z5.080
F500.0
G1 X32.298 Y44.446 Z-5.443
F2000.0
G03 X31.798 Y43.946 I0.000 J-0.500
G03 X32.298 Y43.446 I0.500 J0.000
G03 X32.798 Y43.946 I0.000 J0.500
G03 X32.298 Y44.446 I-0.500 J0.000
F2000.0
G00 X32.298 Y44.446 Z5.080
F500.0
G1 X32.298 Y44.446 Z-7.257
F2000.0
G03 X31.798 Y43.946 I0.000 J-0.500
G03 X32.298 Y43.446 I0.500 J0.000
G03 X32.798 Y43.946 I0.000 J0.500
G03 X32.298 Y44.446 I-0.500 J0.000
F2000.0
G00 X32.298 Y44.446 Z5.080
F500.0
G1 X32.298 Y44.446 Z-9.071
F2000.0
G03 X31.798 Y43.946 I0.000 J-0.500
G03 X32.298 Y43.446 I0.500 J0.000
G03 X32.798 Y43.946 I0.000 J0.500
G03 X32.298 Y44.446 I-0.500 J0.000
F2000.0
G00 X32.298 Y44.446 Z5.080
F500.0
G1 X32.298 Y44.446 Z-10.886
F2000.0
G03 X31.798 Y43.946 I0.000 J-0.500
G03 X32.298 Y43.446 I0.500 J0.000
G03 X32.798 Y43.946 I0.000 J0.500
G03 X32.298 Y44.446 I-0.500 J0.000
F2000.0
G00 X32.298 Y44.446 Z5.080
F500.0
G1 X32.298 Y44.446 Z-12.700
F2000.0
G03 X31.798 Y43.946 I0.000 J-0.500
G03 X32.298 Y43.446 I0.500 J0.000
G03 X32.798 Y43.946 I0.000 J0.500
G03 X32.298 Y44.446 I-0.500 J0.000
F2000.0
G00 X32.298 Y44.446 Z5.080
(|---------------------------------------)
(| Toolpath:- 'Pocket Ring'     )
(|---------------------------------------)
S18000
G04 P5
F2000.0
G00 X32.944 Y130.057 Z5.080
F500.0
G1 X32.944 Y130.057 Z-2.000
F2000.0
G01 X32.832 Y130.320 Z-2.000
F2000.0
G03 X31.483 Y130.057 I-0.649 J-0.262
G03 X32.832 Y129.795 I0.700 J0.000
F2000.0
G01 X32.944 Y130.057 Z-2.000
F2000.0
G01 X35.725 Y130.057 Z-2.000
F2000.0
G02 X35.057 Y131.220 I3.874 J3.000
F2000.0
G03 X29.083 Y130.057 I-2.874 J-1.162
G03 X35.057 Y128.895 I3.100 J0.000
F2000.0
G02 X35.725 Y130.057 I4.542 J-1.837
F2000.0
G01 X39.599 Y130.557 Z-2.000
F2000.0
G02 X37.282 Y132.120 I0.000 J2.500
F2000.0
G03 X26.683 Y130.057 I-5.099 J-2.062
G03 X37.282 Y127.995 I5.500 J0.000
F2000.0
G02 X39.599 Y129.557 I2.318 J-0.938
F2000.0
G01 X54.740 Y129.557 Z-2.000
G01 X54.740 Y130.557 Z-2.000
G01 X39.599 Y130.557 Z-2.000
F2000.0
G00 X39.599 Y130.557 Z5.080
F2000.0
G00 X32.944 Y130.057 Z5.080
F500.0
G1 X32.944 Y130.057 Z-4.000
F2000.0
G01 X32.832 Y130.320 Z-4.000
F2000.0
G03 X31.483 Y130.057 I-0.649 J-0.262
G03 X32.832 Y129.795 I0.700 J0.000
F2000.0
G01 X32.944 Y130.057 Z-4.000
F2000.0
G01 X35.725 Y130.057 Z-4.000
F2000.0
G02 X35.057 Y131.220 I3.874 J3.000
F2000.0
G03 X29.083 Y130.057 I-2.874 J-1.162
G03 X35.057 Y128.895 I3.100 J0.000
F2000.0
G02 X35.725 Y130.057 I4.542 J-1.837
F2000.0
G01 X39.599 Y130.557 Z-4.000
F2000.0
G02 X37.282 Y132.120 I0.000 J2.500
F2000.0
G03 X26.683 Y130.057 I-5.099 J-2.062
G03 X37.282 Y127.995 I5.500 J0.000
F2000.0
G02 X39.599 Y129.557 I2.318 J-0.938
F2000.0
G01 X54.740 Y129.557 Z-4.000
G01 X54.740 Y130.557 Z-4.000
G01 X39.599 Y130.557 Z-4.000
F2000.0
G00 X39.599 Y130.557 Z5.080
F2000.0
G00 X32.944 Y130.057 Z5.080
F500.0
G1 X32.944 Y130.057 Z-6.000
F2000.0
G01 X32.832 Y130.320 Z-6.000
F2000.0
G03 X31.483 Y130.057 I-0.649 J-0.262
G03 X32.832 Y129.795 I0.700 J0.000
F2000.0
G01 X32.944 Y130.057 Z-6.000
F2000.0
G01 X35.725 Y130.057 Z-6.000
F2000.0
G02 X35.057 Y131.220 I3.874 J3.000
F2000.0
G03 X29.083 Y130.057 I-2.874 J-1.162
G03 X35.057 Y128.895 I3.100 J0.000
F2000.0
G02 X35.725 Y130.057 I4.542 J-1.837
F2000.0
G01 X39.599 Y130.557 Z-6.000
F2000.0
G02 X37.282 Y132.120 I0.000 J2.500
F2000.0
G03 X26.683 Y130.057 I-5.099 J-2.062
G03 X37.282 Y127.995 I5.500 J0.000
F2000.0
G02 X39.599 Y129.557 I2.318 J-0.938
F2000.0
G01 X54.740 Y129.557 Z-6.000
G01 X54.740 Y130.557 Z-6.000
G01 X39.599 Y130.557 Z-6.000
F2000.0
G00 X39.599 Y130.557 Z5.080
(|---------------------------------------)
(| Toolpath:- 'Final'     )
(|---------------------------------------)
S18000
G04 P5
F2000.0
G00 X7.240 Y13.500 Z5.080
F500.0
G1 X7.240 Y13.500 Z-1.814
F2000.0
G02 X4.740 Y16.000 I0.000 J2.500
F2000.0
G01 X4.740 Y79.000 Z-1.814
F2000.0
G02 X12.240 Y86.500 I7.500 J0.000
F2000.0
G01 X30.684 Y86.500 Z-1.814
F2000.0
G02 X31.981 Y86.137 I0.000 J-2.500
F2000.0
G03 X32.500 Y86.137 I0.259 J0.427
F2000.0
G02 X33.797 Y86.500 I1.297 J-2.137
F2000.0
G01 X52.240 Y86.500 Z-1.814
F2000.0
G02 X59.740 Y79.000 I0.000 J-7.500
F2000.0
G01 X59.740 Y16.000 Z-1.814
F2000.0
G02 X57.240 Y13.500 I-2.500 J0.000
F2000.0
G01 X7.240 Y13.500 Z-1.814
F500.0
G1 X7.240 Y13.500 Z-3.629
F2000.0
G02 X4.740 Y16.000 I0.000 J2.500
F2000.0
G01 X4.740 Y79.000 Z-3.629
F2000.0
G02 X12.240 Y86.500 I7.500 J0.000
F2000.0
G01 X30.684 Y86.500 Z-3.629
F2000.0
G02 X31.981 Y86.137 I0.000 J-2.500
F2000.0
G03 X32.500 Y86.137 I0.259 J0.427
F2000.0
G02 X33.797 Y86.500 I1.297 J-2.137
F2000.0
G01 X52.240 Y86.500 Z-3.629
F2000.0
G02 X59.740 Y79.000 I0.000 J-7.500
F2000.0
G01 X59.740 Y16.000 Z-3.629
F2000.0
G02 X57.240 Y13.500 I-2.500 J0.000
F2000.0
G01 X7.240 Y13.500 Z-3.629
F500.0
G1 X7.240 Y13.500 Z-5.443
F2000.0
G02 X4.740 Y16.000 I0.000 J2.500
F2000.0
G01 X4.740 Y79.000 Z-5.443
F2000.0
G02 X12.240 Y86.500 I7.500 J0.000
F2000.0
G01 X30.684 Y86.500 Z-5.443
F2000.0
G02 X31.981 Y86.137 I0.000 J-2.500
F2000.0
G03 X32.500 Y86.137 I0.259 J0.427
F2000.0
G02 X33.797 Y86.500 I1.297 J-2.137
F2000.0
G01 X52.240 Y86.500 Z-5.443
F2000.0
G02 X59.740 Y79.000 I0.000 J-7.500
F2000.0
G01 X59.740 Y16.000 Z-5.443
F2000.0
G02 X57.240 Y13.500 I-2.500 J0.000
F2000.0
G01 X7.240 Y13.500 Z-5.443
F500.0
G1 X7.240 Y13.500 Z-7.257
F2000.0
G02 X4.740 Y16.000 I0.000 J2.500
F2000.0
G01 X4.740 Y79.000 Z-7.257
F2000.0
G02 X12.240 Y86.500 I7.500 J0.000
F2000.0
G01 X30.684 Y86.500 Z-7.257
F2000.0
G02 X31.981 Y86.137 I0.000 J-2.500
F2000.0
G03 X32.500 Y86.137 I0.259 J0.427
F2000.0
G02 X33.797 Y86.500 I1.297 J-2.137
F2000.0
G01 X52.240 Y86.500 Z-7.257
F2000.0
G02 X59.740 Y79.000 I0.000 J-7.500
F2000.0
G01 X59.740 Y16.000 Z-7.257
F2000.0
G02 X57.240 Y13.500 I-2.500 J0.000
F2000.0
G01 X7.240 Y13.500 Z-7.257
F500.0
G1 X7.240 Y13.500 Z-9.071
F2000.0
G02 X4.740 Y16.000 I0.000 J2.500
F2000.0
G01 X4.740 Y79.000 Z-9.071
F2000.0
G02 X12.240 Y86.500 I7.500 J0.000
F2000.0
G01 X30.684 Y86.500 Z-9.071
F2000.0
G02 X31.981 Y86.137 I0.000 J-2.500
F2000.0
G03 X32.500 Y86.137 I0.259 J0.427
F2000.0
G02 X33.797 Y86.500 I1.297 J-2.137
F2000.0
G01 X52.240 Y86.500 Z-9.071
F2000.0
G02 X59.740 Y79.000 I0.000 J-7.500
F2000.0
G01 X59.740 Y16.000 Z-9.071
F2000.0
G02 X57.240 Y13.500 I-2.500 J0.000
F2000.0
G01 X7.240 Y13.500 Z-9.071
F500.0
G1 X7.240 Y13.500 Z-10.886
F2000.0
G02 X4.740 Y16.000 I0.000 J2.500
F2000.0
G01 X4.740 Y79.000 Z-10.886
F2000.0
G02 X12.240 Y86.500 I7.500 J0.000
F2000.0
G01 X30.684 Y86.500 Z-10.886
F2000.0
G02 X31.981 Y86.137 I0.000 J-2.500
F2000.0
G03 X32.500 Y86.137 I0.259 J0.427
F2000.0
G02 X33.797 Y86.500 I1.297 J-2.137
F2000.0
G01 X52.240 Y86.500 Z-10.886
F2000.0
G02 X59.740 Y79.000 I0.000 J-7.500
F2000.0
G01 X59.740 Y16.000 Z-10.886
F2000.0
G02 X57.240 Y13.500 I-2.500 J0.000
F2000.0
G01 X7.240 Y13.500 Z-10.886
F500.0
G1 X7.240 Y13.500 Z-12.700
F2000.0
G02 X4.740 Y16.000 I0.000 J2.500
F2000.0
G01 X4.740 Y79.000 Z-12.700
F2000.0
G02 X12.240 Y86.500 I7.500 J0.000
F2000.0
G01 X30.684 Y86.500 Z-12.700
F2000.0
G02 X31.981 Y86.137 I0.000 J-2.500
F2000.0
G03 X32.500 Y86.137 I0.259 J0.427
F2000.0
G02 X33.797 Y86.500 I1.297 J-2.137
F2000.0
G01 X52.240 Y86.500 Z-12.700
F2000.0
G02 X59.740 Y79.000 I0.000 J-7.500
F2000.0
G01 X59.740 Y16.000 Z-12.700
F2000.0
G02 X57.240 Y13.500 I-2.500 J0.000
F2000.0
G01 X7.240 Y13.500 Z-12.700
F2000.0
G00 X7.240 Y13.500 Z5.080
F2000.0
G00 X7.240 Y99.611 Z5.080
F500.0
G1 X7.240 Y99.611 Z-1.814
F2000.0
G02 X4.740 Y102.111 I0.000 J2.500
F2000.0
G01 X4.740 Y165.111 Z-1.814
F2000.0
G02 X12.240 Y172.611 I7.500 J0.000
F2000.0
G01 X30.684 Y172.611 Z-1.814
F2000.0
G02 X31.981 Y172.248 I0.000 J-2.500
F2000.0
G03 X32.500 Y172.248 I0.259 J0.427
F2000.0
G02 X33.797 Y172.611 I1.297 J-2.137
F2000.0
G01 X52.240 Y172.611 Z-1.814
F2000.0
G02 X59.740 Y165.111 I0.000 J-7.500
F2000.0
G01 X59.740 Y102.111 Z-1.814
F2000.0
G02 X57.240 Y99.611 I-2.500 J0.000
F2000.0
G01 X7.240 Y99.611 Z-1.814
F500.0
G1 X7.240 Y99.611 Z-3.629
F2000.0
G02 X4.740 Y102.111 I0.000 J2.500
F2000.0
G01 X4.740 Y165.111 Z-3.629
F2000.0
G02 X12.240 Y172.611 I7.500 J0.000
F2000.0
G01 X30.684 Y172.611 Z-3.629
F2000.0
G02 X31.981 Y172.248 I0.000 J-2.500
F2000.0
G03 X32.500 Y172.248 I0.259 J0.427
F2000.0
G02 X33.797 Y172.611 I1.297 J-2.137
F2000.0
G01 X52.240 Y172.611 Z-3.629
F2000.0
G02 X59.740 Y165.111 I0.000 J-7.500
F2000.0
G01 X59.740 Y102.111 Z-3.629
F2000.0
G02 X57.240 Y99.611 I-2.500 J0.000
F2000.0
G01 X7.240 Y99.611 Z-3.629
F500.0
G1 X7.240 Y99.611 Z-5.443
F2000.0
G02 X4.740 Y102.111 I0.000 J2.500
F2000.0
G01 X4.740 Y165.111 Z-5.443
F2000.0
G02 X12.240 Y172.611 I7.500 J0.000
F2000.0
G01 X30.684 Y172.611 Z-5.443
F2000.0
G02 X31.981 Y172.248 I0.000 J-2.500
F2000.0
G03 X32.500 Y172.248 I0.259 J0.427
F2000.0
G02 X33.797 Y172.611 I1.297 J-2.137
F2000.0
G01 X52.240 Y172.611 Z-5.443
F2000.0
G02 X59.740 Y165.111 I0.000 J-7.500
F2000.0
G01 X59.740 Y102.111 Z-5.443
F2000.0
G02 X57.240 Y99.611 I-2.500 J0.000
F2000.0
G01 X7.240 Y99.611 Z-5.443
F500.0
G1 X7.240 Y99.611 Z-7.257
F2000.0
G02 X4.740 Y102.111 I0.000 J2.500
F2000.0
G01 X4.740 Y165.111 Z-7.257
F2000.0
G02 X12.240 Y172.611 I7.500 J0.000
F2000.0
G01 X30.684 Y172.611 Z-7.257
F2000.0
G02 X31.981 Y172.248 I0.000 J-2.500
F2000.0
G03 X32.500 Y172.248 I0.259 J0.427
F2000.0
G02 X33.797 Y172.611 I1.297 J-2.137
F2000.0
G01 X52.240 Y172.611 Z-7.257
F2000.0
G02 X59.740 Y165.111 I0.000 J-7.500
F2000.0
G01 X59.740 Y102.111 Z-7.257
F2000.0
G02 X57.240 Y99.611 I-2.500 J0.000
F2000.0
G01 X7.240 Y99.611 Z-7.257
F500.0
G1 X7.240 Y99.611 Z-9.071
F2000.0
G02 X4.740 Y102.111 I0.000 J2.500
F2000.0
G01 X4.740 Y165.111 Z-9.071
F2000.0
G02 X12.240 Y172.611 I7.500 J0.000
F2000.0
G01 X30.684 Y172.611 Z-9.071
F2000.0
G02 X31.981 Y172.248 I0.000 J-2.500
F2000.0
G03 X32.500 Y172.248 I0.259 J0.427
F2000.0
G02 X33.797 Y172.611 I1.297 J-2.137
F2000.0
G01 X52.240 Y172.611 Z-9.071
F2000.0
G02 X59.740 Y165.111 I0.000 J-7.500
F2000.0
G01 X59.740 Y102.111 Z-9.071
F2000.0
G02 X57.240 Y99.611 I-2.500 J0.000
F2000.0
G01 X7.240 Y99.611 Z-9.071
F500.0
G1 X7.240 Y99.611 Z-10.886
F2000.0
G02 X4.740 Y102.111 I0.000 J2.500
F2000.0
G01 X4.740 Y165.111 Z-10.886
F2000.0
G02 X12.240 Y172.611 I7.500 J0.000
F2000.0
G01 X30.684 Y172.611 Z-10.886
F2000.0
G02 X31.981 Y172.248 I0.000 J-2.500
F2000.0
G03 X32.500 Y172.248 I0.259 J0.427
F2000.0
G02 X33.797 Y172.611 I1.297 J-2.137
F2000.0
G01 X52.240 Y172.611 Z-10.886
F2000.0
G02 X59.740 Y165.111 I0.000 J-7.500
F2000.0
G01 X59.740 Y102.111 Z-10.886
F2000.0
G02 X57.240 Y99.611 I-2.500 J0.000
F2000.0
G01 X7.240 Y99.611 Z-10.886
F500.0
G1 X7.240 Y99.611 Z-12.700
F2000.0
G02 X4.740 Y102.111 I0.000 J2.500
F2000.0
G01 X4.740 Y165.111 Z-12.700
F2000.0
G02 X12.240 Y172.611 I7.500 J0.000
F2000.0
G01 X30.684 Y172.611 Z-12.700
F2000.0
G02 X31.981 Y172.248 I0.000 J-2.500
F2000.0
G03 X32.500 Y172.248 I0.259 J0.427
F2000.0
G02 X33.797 Y172.611 I1.297 J-2.137
F2000.0
G01 X52.240 Y172.611 Z-12.700
F2000.0
G02 X59.740 Y165.111 I0.000 J-7.500
F2000.0
G01 X59.740 Y102.111 Z-12.700
F2000.0
G02 X57.240 Y99.611 I-2.500 J0.000
F2000.0
G01 X7.240 Y99.611 Z-12.700
F2000.0
G00 X7.240 Y99.611 Z5.080
F2000.0
G00 X10.113 Y178.765 Z5.080
F500.0
G1 X10.113 Y178.765 Z-1.814
F2000.0
G02 X5.113 Y183.765 I0.000 J5.000
F2000.0
G01 X5.113 Y375.265 Z-1.814
F2000.0
G02 X7.613 Y377.765 I2.500 J0.000
F2000.0
G01 X55.113 Y377.765 Z-1.814
F2000.0
G02 X60.113 Y372.765 I0.000 J-5.000
F2000.0
G01 X60.113 Y183.765 Z-1.814
F2000.0
G02 X55.113 Y178.765 I-5.000 J0.000
F2000.0
G01 X10.113 Y178.765 Z-1.814
F500.0
G1 X10.113 Y178.765 Z-3.629
F2000.0
G02 X5.113 Y183.765 I0.000 J5.000
F2000.0
G01 X5.113 Y375.265 Z-3.629
F2000.0
G02 X7.613 Y377.765 I2.500 J0.000
F2000.0
G01 X55.113 Y377.765 Z-3.629
F2000.0
G02 X60.113 Y372.765 I0.000 J-5.000
F2000.0
G01 X60.113 Y183.765 Z-3.629
F2000.0
G02 X55.113 Y178.765 I-5.000 J0.000
F2000.0
G01 X10.113 Y178.765 Z-3.629
F500.0
G1 X10.113 Y178.765 Z-5.443
F2000.0
G02 X5.113 Y183.765 I0.000 J5.000
F2000.0
G01 X5.113 Y375.265 Z-5.443
F2000.0
G02 X7.613 Y377.765 I2.500 J0.000
F2000.0
G01 X55.113 Y377.765 Z-5.443
F2000.0
G02 X60.113 Y372.765 I0.000 J-5.000
F2000.0
G01 X60.113 Y183.765 Z-5.443
F2000.0
G02 X55.113 Y178.765 I-5.000 J0.000
F2000.0
G01 X10.113 Y178.765 Z-5.443
F500.0
G1 X10.113 Y178.765 Z-7.257
F2000.0
G02 X5.113 Y183.765 I0.000 J5.000
F2000.0
G01 X5.113 Y375.265 Z-7.257
F2000.0
G02 X7.613 Y377.765 I2.500 J0.000
F2000.0
G01 X55.113 Y377.765 Z-7.257
F2000.0
G02 X60.113 Y372.765 I0.000 J-5.000
F2000.0
G01 X60.113 Y183.765 Z-7.257
F2000.0
G02 X55.113 Y178.765 I-5.000 J0.000
F2000.0
G01 X10.113 Y178.765 Z-7.257
F500.0
G1 X10.113 Y178.765 Z-9.071
F2000.0
G02 X5.113 Y183.765 I0.000 J5.000
F2000.0
G01 X5.113 Y375.265 Z-9.071
F2000.0
G02 X7.613 Y377.765 I2.500 J0.000
F2000.0
G01 X55.113 Y377.765 Z-9.071
F2000.0
G02 X60.113 Y372.765 I0.000 J-5.000
F2000.0
G01 X60.113 Y183.765 Z-9.071
F2000.0
G02 X55.113 Y178.765 I-5.000 J0.000
F2000.0
G01 X10.113 Y178.765 Z-9.071
F500.0
G1 X10.113 Y178.765 Z-10.886
F2000.0
G02 X5.113 Y183.765 I0.000 J5.000
F2000.0
G01 X5.113 Y375.265 Z-10.886
F2000.0
G02 X7.613 Y377.765 I2.500 J0.000
F2000.0
G01 X55.113 Y377.765 Z-10.886
F2000.0
G02 X60.113 Y372.765 I0.000 J-5.000
F2000.0
G01 X60.113 Y183.765 Z-10.886
F2000.0
G02 X55.113 Y178.765 I-5.000 J0.000
F2000.0
G01 X10.113 Y178.765 Z-10.886
F500.0
G1 X10.113 Y178.765 Z-12.700
F2000.0
G02 X5.113 Y183.765 I0.000 J5.000
F2000.0
G01 X5.113 Y375.265 Z-12.700
F2000.0
G02 X7.613 Y377.765 I2.500 J0.000
F2000.0
G01 X55.113 Y377.765 Z-12.700
F2000.0
G02 X60.113 Y372.765 I0.000 J-5.000
F2000.0
G01 X60.113 Y183.765 Z-12.700
F2000.0
G02 X55.113 Y178.765 I-5.000 J0.000
F2000.0
G01 X10.113 Y178.765 Z-12.700
F2000.0
G00 X10.113 Y178.765 Z5.080
G00  Z20.320
G00  X0.000  Y0.000
M02
