( VECTRIC POST REVISION)
( 1264C0CC338BA3BE9BC0E17FB559AAC6)
( Trat )
( File created: Wednesday January 12 2022 - 09:55 PM)
( for Next Wave Automation from Vectric )
( Material Size)
( X= 170.000, Y= 220.000, Z= 12.700)
( Z Origin for Material  = Material Surface)
( XY Origin for Material = Bottom Left Corner)
(      XY Origin Position  = X:0.000, Y:0.000)
( Home Position)
(  X =  X0.000 Y =  Y0.000 Z =  Z20.320)
( Safe Z = 5.080)
()
(Toolpaths used in this file:)
(Big Circle)
(Small)
(Spanner)
(Final)
(Tool used in this file: )
(4 = End Mill {5 mm})
(End Mill {5 mm})
(|---------------------------------------)
(| Toolpath:- 'Big Circle'    )
(|---------------------------------------)
G90
G21
F2000.0
G0  Z20.320
S18000
M3
G04 P5
F2000.0
G00 X29.326 Y141.751 Z5.080
F500.0
G1 X29.326 Y141.751 Z-2.000
F2000.0
G03 X29.626 Y141.451 I0.300 J0.000
G03 X29.926 Y141.751 I0.000 J0.300
G03 X29.626 Y142.051 I-0.300 J0.000
G03 X29.326 Y141.751 I0.000 J-0.300
F2000.0
G01 X26.926 Y141.751 Z-2.000
F2000.0
G03 X29.626 Y139.051 I2.700 J0.000
G03 X32.326 Y141.751 I0.000 J2.700
G03 X29.626 Y144.451 I-2.700 J0.000
G03 X26.926 Y141.751 I0.000 J-2.700
F2000.0
G01 X24.526 Y141.751 Z-2.000
F2000.0
G03 X29.626 Y136.651 I5.100 J0.000
G03 X34.726 Y141.751 I0.000 J5.100
G03 X29.626 Y146.851 I-5.100 J0.000
G03 X24.526 Y141.751 I0.000 J-5.100
F2000.0
G01 X22.126 Y141.751 Z-2.000
F2000.0
G03 X29.626 Y134.251 I7.500 J0.000
G03 X37.126 Y141.751 I0.000 J7.500
G03 X29.626 Y149.251 I-7.500 J0.000
G03 X22.126 Y141.751 I0.000 J-7.500
F2000.0
G00 X22.126 Y141.751 Z5.080
F2000.0
G00 X29.326 Y141.751 Z5.080
F500.0
G1 X29.326 Y141.751 Z-4.000
F2000.0
G03 X29.626 Y141.451 I0.300 J0.000
G03 X29.926 Y141.751 I0.000 J0.300
G03 X29.626 Y142.051 I-0.300 J0.000
G03 X29.326 Y141.751 I0.000 J-0.300
F2000.0
G01 X26.926 Y141.751 Z-4.000
F2000.0
G03 X29.626 Y139.051 I2.700 J0.000
G03 X32.326 Y141.751 I0.000 J2.700
G03 X29.626 Y144.451 I-2.700 J0.000
G03 X26.926 Y141.751 I0.000 J-2.700
F2000.0
G01 X24.526 Y141.751 Z-4.000
F2000.0
G03 X29.626 Y136.651 I5.100 J0.000
G03 X34.726 Y141.751 I0.000 J5.100
G03 X29.626 Y146.851 I-5.100 J0.000
G03 X24.526 Y141.751 I0.000 J-5.100
F2000.0
G01 X22.126 Y141.751 Z-4.000
F2000.0
G03 X29.626 Y134.251 I7.500 J0.000
G03 X37.126 Y141.751 I0.000 J7.500
G03 X29.626 Y149.251 I-7.500 J0.000
G03 X22.126 Y141.751 I0.000 J-7.500
F2000.0
G00 X22.126 Y141.751 Z5.080
F2000.0
G00 X67.426 Y142.042 Z5.080
F500.0
G1 X67.426 Y142.042 Z-2.000
F2000.0
G03 X67.126 Y142.342 I-0.300 J0.000
G03 X66.826 Y142.042 I0.000 J-0.300
G03 X67.126 Y141.742 I0.300 J0.000
G03 X67.426 Y142.042 I0.000 J0.300
F2000.0
G01 X69.826 Y142.042 Z-2.000
F2000.0
G03 X67.126 Y144.742 I-2.700 J0.000
G03 X64.426 Y142.042 I0.000 J-2.700
G03 X67.126 Y139.342 I2.700 J0.000
G03 X69.826 Y142.042 I0.000 J2.700
F2000.0
G01 X72.226 Y142.042 Z-2.000
F2000.0
G03 X67.126 Y147.142 I-5.100 J0.000
G03 X62.026 Y142.042 I0.000 J-5.100
G03 X67.126 Y136.942 I5.100 J0.000
G03 X72.226 Y142.042 I0.000 J5.100
F2000.0
G01 X74.626 Y142.042 Z-2.000
F2000.0
G03 X67.126 Y149.542 I-7.500 J0.000
G03 X59.626 Y142.042 I0.000 J-7.500
G03 X67.126 Y134.542 I7.500 J0.000
G03 X74.626 Y142.042 I0.000 J7.500
F2000.0
G00 X74.626 Y142.042 Z5.080
F2000.0
G00 X67.426 Y142.042 Z5.080
F500.0
G1 X67.426 Y142.042 Z-4.000
F2000.0
G03 X67.126 Y142.342 I-0.300 J0.000
G03 X66.826 Y142.042 I0.000 J-0.300
G03 X67.126 Y141.742 I0.300 J0.000
G03 X67.426 Y142.042 I0.000 J0.300
F2000.0
G01 X69.826 Y142.042 Z-4.000
F2000.0
G03 X67.126 Y144.742 I-2.700 J0.000
G03 X64.426 Y142.042 I0.000 J-2.700
G03 X67.126 Y139.342 I2.700 J0.000
G03 X69.826 Y142.042 I0.000 J2.700
F2000.0
G01 X72.226 Y142.042 Z-4.000
F2000.0
G03 X67.126 Y147.142 I-5.100 J0.000
G03 X62.026 Y142.042 I0.000 J-5.100
G03 X67.126 Y136.942 I5.100 J0.000
G03 X72.226 Y142.042 I0.000 J5.100
F2000.0
G01 X74.626 Y142.042 Z-4.000
F2000.0
G03 X67.126 Y149.542 I-7.500 J0.000
G03 X59.626 Y142.042 I0.000 J-7.500
G03 X67.126 Y134.542 I7.500 J0.000
G03 X74.626 Y142.042 I0.000 J7.500
F2000.0
G00 X74.626 Y142.042 Z5.080
F2000.0
G00 X104.326 Y142.042 Z5.080
F500.0
G1 X104.326 Y142.042 Z-2.000
F2000.0
G03 X104.626 Y141.742 I0.300 J0.000
G03 X104.926 Y142.042 I0.000 J0.300
G03 X104.626 Y142.342 I-0.300 J0.000
G03 X104.326 Y142.042 I0.000 J-0.300
F2000.0
G01 X101.926 Y142.042 Z-2.000
F2000.0
G03 X104.626 Y139.342 I2.700 J0.000
G03 X107.326 Y142.042 I0.000 J2.700
G03 X104.626 Y144.742 I-2.700 J0.000
G03 X101.926 Y142.042 I0.000 J-2.700
F2000.0
G01 X99.526 Y142.042 Z-2.000
F2000.0
G03 X104.626 Y136.942 I5.100 J0.000
G03 X109.726 Y142.042 I0.000 J5.100
G03 X104.626 Y147.142 I-5.100 J0.000
G03 X99.526 Y142.042 I0.000 J-5.100
F2000.0
G01 X97.126 Y142.042 Z-2.000
F2000.0
G03 X104.626 Y134.542 I7.500 J0.000
G03 X112.126 Y142.042 I0.000 J7.500
G03 X104.626 Y149.542 I-7.500 J0.000
G03 X97.126 Y142.042 I0.000 J-7.500
F2000.0
G00 X97.126 Y142.042 Z5.080
F2000.0
G00 X104.326 Y142.042 Z5.080
F500.0
G1 X104.326 Y142.042 Z-4.000
F2000.0
G03 X104.626 Y141.742 I0.300 J0.000
G03 X104.926 Y142.042 I0.000 J0.300
G03 X104.626 Y142.342 I-0.300 J0.000
G03 X104.326 Y142.042 I0.000 J-0.300
F2000.0
G01 X101.926 Y142.042 Z-4.000
F2000.0
G03 X104.626 Y139.342 I2.700 J0.000
G03 X107.326 Y142.042 I0.000 J2.700
G03 X104.626 Y144.742 I-2.700 J0.000
G03 X101.926 Y142.042 I0.000 J-2.700
F2000.0
G01 X99.526 Y142.042 Z-4.000
F2000.0
G03 X104.626 Y136.942 I5.100 J0.000
G03 X109.726 Y142.042 I0.000 J5.100
G03 X104.626 Y147.142 I-5.100 J0.000
G03 X99.526 Y142.042 I0.000 J-5.100
F2000.0
G01 X97.126 Y142.042 Z-4.000
F2000.0
G03 X104.626 Y134.542 I7.500 J0.000
G03 X112.126 Y142.042 I0.000 J7.500
G03 X104.626 Y149.542 I-7.500 J0.000
G03 X97.126 Y142.042 I0.000 J-7.500
F2000.0
G00 X97.126 Y142.042 Z5.080
F2000.0
G00 X142.126 Y141.742 Z5.080
F500.0
G1 X142.126 Y141.742 Z-2.000
F2000.0
G03 X142.426 Y142.042 I0.000 J0.300
G03 X142.126 Y142.342 I-0.300 J0.000
G03 X141.826 Y142.042 I0.000 J-0.300
G03 X142.126 Y141.742 I0.300 J0.000
F2000.0
G01 X142.126 Y139.342 Z-2.000
F2000.0
G03 X144.826 Y142.042 I0.000 J2.700
G03 X142.126 Y144.742 I-2.700 J0.000
G03 X139.426 Y142.042 I0.000 J-2.700
G03 X142.126 Y139.342 I2.700 J0.000
F2000.0
G01 X142.126 Y136.942 Z-2.000
F2000.0
G03 X147.226 Y142.042 I0.000 J5.100
G03 X142.126 Y147.142 I-5.100 J0.000
G03 X137.026 Y142.042 I0.000 J-5.100
G03 X142.126 Y136.942 I5.100 J0.000
F2000.0
G01 X142.126 Y134.542 Z-2.000
F2000.0
G03 X149.626 Y142.042 I0.000 J7.500
G03 X142.126 Y149.542 I-7.500 J0.000
G03 X134.626 Y142.042 I0.000 J-7.500
G03 X142.126 Y134.542 I7.500 J0.000
F2000.0
G00 X142.126 Y134.542 Z5.080
F2000.0
G00 X142.126 Y141.742 Z5.080
F500.0
G1 X142.126 Y141.742 Z-4.000
F2000.0
G03 X142.426 Y142.042 I0.000 J0.300
G03 X142.126 Y142.342 I-0.300 J0.000
G03 X141.826 Y142.042 I0.000 J-0.300
G03 X142.126 Y141.742 I0.300 J0.000
F2000.0
G01 X142.126 Y139.342 Z-4.000
F2000.0
G03 X144.826 Y142.042 I0.000 J2.700
G03 X142.126 Y144.742 I-2.700 J0.000
G03 X139.426 Y142.042 I0.000 J-2.700
G03 X142.126 Y139.342 I2.700 J0.000
F2000.0
G01 X142.126 Y136.942 Z-4.000
F2000.0
G03 X147.226 Y142.042 I0.000 J5.100
G03 X142.126 Y147.142 I-5.100 J0.000
G03 X137.026 Y142.042 I0.000 J-5.100
G03 X142.126 Y136.942 I5.100 J0.000
F2000.0
G01 X142.126 Y134.542 Z-4.000
F2000.0
G03 X149.626 Y142.042 I0.000 J7.500
G03 X142.126 Y149.542 I-7.500 J0.000
G03 X134.626 Y142.042 I0.000 J-7.500
G03 X142.126 Y134.542 I7.500 J0.000
F2000.0
G00 X142.126 Y134.542 Z5.080
F2000.0
G00 X142.126 Y104.242 Z5.080
F500.0
G1 X142.126 Y104.242 Z-2.000
F2000.0
G03 X142.426 Y104.542 I0.000 J0.300
G03 X142.126 Y104.842 I-0.300 J0.000
G03 X141.826 Y104.542 I0.000 J-0.300
G03 X142.126 Y104.242 I0.300 J0.000
F2000.0
G01 X142.126 Y101.842 Z-2.000
F2000.0
G03 X144.826 Y104.542 I0.000 J2.700
G03 X142.126 Y107.242 I-2.700 J0.000
G03 X139.426 Y104.542 I0.000 J-2.700
G03 X142.126 Y101.842 I2.700 J0.000
F2000.0
G01 X142.126 Y99.442 Z-2.000
F2000.0
G03 X147.226 Y104.542 I0.000 J5.100
G03 X142.126 Y109.642 I-5.100 J0.000
G03 X137.026 Y104.542 I0.000 J-5.100
G03 X142.126 Y99.442 I5.100 J0.000
F2000.0
G01 X142.126 Y97.042 Z-2.000
F2000.0
G03 X149.626 Y104.542 I0.000 J7.500
G03 X142.126 Y112.042 I-7.500 J0.000
G03 X134.626 Y104.542 I0.000 J-7.500
G03 X142.126 Y97.042 I7.500 J0.000
F2000.0
G00 X142.126 Y97.042 Z5.080
F2000.0
G00 X142.126 Y104.242 Z5.080
F500.0
G1 X142.126 Y104.242 Z-4.000
F2000.0
G03 X142.426 Y104.542 I0.000 J0.300
G03 X142.126 Y104.842 I-0.300 J0.000
G03 X141.826 Y104.542 I0.000 J-0.300
G03 X142.126 Y104.242 I0.300 J0.000
F2000.0
G01 X142.126 Y101.842 Z-4.000
F2000.0
G03 X144.826 Y104.542 I0.000 J2.700
G03 X142.126 Y107.242 I-2.700 J0.000
G03 X139.426 Y104.542 I0.000 J-2.700
G03 X142.126 Y101.842 I2.700 J0.000
F2000.0
G01 X142.126 Y99.442 Z-4.000
F2000.0
G03 X147.226 Y104.542 I0.000 J5.100
G03 X142.126 Y109.642 I-5.100 J0.000
G03 X137.026 Y104.542 I0.000 J-5.100
G03 X142.126 Y99.442 I5.100 J0.000
F2000.0
G01 X142.126 Y97.042 Z-4.000
F2000.0
G03 X149.626 Y104.542 I0.000 J7.500
G03 X142.126 Y112.042 I-7.500 J0.000
G03 X134.626 Y104.542 I0.000 J-7.500
G03 X142.126 Y97.042 I7.500 J0.000
F2000.0
G00 X142.126 Y97.042 Z5.080
F2000.0
G00 X104.326 Y104.542 Z5.080
F500.0
G1 X104.326 Y104.542 Z-2.000
F2000.0
G03 X104.626 Y104.242 I0.300 J0.000
G03 X104.926 Y104.542 I0.000 J0.300
G03 X104.626 Y104.842 I-0.300 J0.000
G03 X104.326 Y104.542 I0.000 J-0.300
F2000.0
G01 X101.926 Y104.542 Z-2.000
F2000.0
G03 X104.626 Y101.842 I2.700 J0.000
G03 X107.326 Y104.542 I0.000 J2.700
G03 X104.626 Y107.242 I-2.700 J0.000
G03 X101.926 Y104.542 I0.000 J-2.700
F2000.0
G01 X99.526 Y104.542 Z-2.000
F2000.0
G03 X104.626 Y99.442 I5.100 J0.000
G03 X109.726 Y104.542 I0.000 J5.100
G03 X104.626 Y109.642 I-5.100 J0.000
G03 X99.526 Y104.542 I0.000 J-5.100
F2000.0
G01 X97.126 Y104.542 Z-2.000
F2000.0
G03 X104.626 Y97.042 I7.500 J0.000
G03 X112.126 Y104.542 I0.000 J7.500
G03 X104.626 Y112.042 I-7.500 J0.000
G03 X97.126 Y104.542 I0.000 J-7.500
F2000.0
G00 X97.126 Y104.542 Z5.080
F2000.0
G00 X104.326 Y104.542 Z5.080
F500.0
G1 X104.326 Y104.542 Z-4.000
F2000.0
G03 X104.626 Y104.242 I0.300 J0.000
G03 X104.926 Y104.542 I0.000 J0.300
G03 X104.626 Y104.842 I-0.300 J0.000
G03 X104.326 Y104.542 I0.000 J-0.300
F2000.0
G01 X101.926 Y104.542 Z-4.000
F2000.0
G03 X104.626 Y101.842 I2.700 J0.000
G03 X107.326 Y104.542 I0.000 J2.700
G03 X104.626 Y107.242 I-2.700 J0.000
G03 X101.926 Y104.542 I0.000 J-2.700
F2000.0
G01 X99.526 Y104.542 Z-4.000
F2000.0
G03 X104.626 Y99.442 I5.100 J0.000
G03 X109.726 Y104.542 I0.000 J5.100
G03 X104.626 Y109.642 I-5.100 J0.000
G03 X99.526 Y104.542 I0.000 J-5.100
F2000.0
G01 X97.126 Y104.542 Z-4.000
F2000.0
G03 X104.626 Y97.042 I7.500 J0.000
G03 X112.126 Y104.542 I0.000 J7.500
G03 X104.626 Y112.042 I-7.500 J0.000
G03 X97.126 Y104.542 I0.000 J-7.500
F2000.0
G00 X97.126 Y104.542 Z5.080
F2000.0
G00 X67.126 Y104.242 Z5.080
F500.0
G1 X67.126 Y104.242 Z-2.000
F2000.0
G03 X67.426 Y104.542 I0.000 J0.300
G03 X67.126 Y104.842 I-0.300 J0.000
G03 X66.826 Y104.542 I0.000 J-0.300
G03 X67.126 Y104.242 I0.300 J0.000
F2000.0
G01 X67.126 Y101.842 Z-2.000
F2000.0
G03 X69.826 Y104.542 I0.000 J2.700
G03 X67.126 Y107.242 I-2.700 J0.000
G03 X64.426 Y104.542 I0.000 J-2.700
G03 X67.126 Y101.842 I2.700 J0.000
F2000.0
G01 X67.126 Y99.442 Z-2.000
F2000.0
G03 X72.226 Y104.542 I0.000 J5.100
G03 X67.126 Y109.642 I-5.100 J0.000
G03 X62.026 Y104.542 I0.000 J-5.100
G03 X67.126 Y99.442 I5.100 J0.000
F2000.0
G01 X67.126 Y97.042 Z-2.000
F2000.0
G03 X74.626 Y104.542 I0.000 J7.500
G03 X67.126 Y112.042 I-7.500 J0.000
G03 X59.626 Y104.542 I0.000 J-7.500
G03 X67.126 Y97.042 I7.500 J0.000
F2000.0
G00 X67.126 Y97.042 Z5.080
F2000.0
G00 X67.126 Y104.242 Z5.080
F500.0
G1 X67.126 Y104.242 Z-4.000
F2000.0
G03 X67.426 Y104.542 I0.000 J0.300
G03 X67.126 Y104.842 I-0.300 J0.000
G03 X66.826 Y104.542 I0.000 J-0.300
G03 X67.126 Y104.242 I0.300 J0.000
F2000.0
G01 X67.126 Y101.842 Z-4.000
F2000.0
G03 X69.826 Y104.542 I0.000 J2.700
G03 X67.126 Y107.242 I-2.700 J0.000
G03 X64.426 Y104.542 I0.000 J-2.700
G03 X67.126 Y101.842 I2.700 J0.000
F2000.0
G01 X67.126 Y99.442 Z-4.000
F2000.0
G03 X72.226 Y104.542 I0.000 J5.100
G03 X67.126 Y109.642 I-5.100 J0.000
G03 X62.026 Y104.542 I0.000 J-5.100
G03 X67.126 Y99.442 I5.100 J0.000
F2000.0
G01 X67.126 Y97.042 Z-4.000
F2000.0
G03 X74.626 Y104.542 I0.000 J7.500
G03 X67.126 Y112.042 I-7.500 J0.000
G03 X59.626 Y104.542 I0.000 J-7.500
G03 X67.126 Y97.042 I7.500 J0.000
F2000.0
G00 X67.126 Y97.042 Z5.080
F2000.0
G00 X29.626 Y104.551 Z5.080
F500.0
G1 X29.626 Y104.551 Z-2.000
F2000.0
G03 X29.326 Y104.251 I0.000 J-0.300
G03 X29.626 Y103.951 I0.300 J0.000
G03 X29.926 Y104.251 I0.000 J0.300
G03 X29.626 Y104.551 I-0.300 J0.000
F2000.0
G01 X29.626 Y106.951 Z-2.000
F2000.0
G03 X26.926 Y104.251 I0.000 J-2.700
G03 X29.626 Y101.551 I2.700 J0.000
G03 X32.326 Y104.251 I0.000 J2.700
G03 X29.626 Y106.951 I-2.700 J0.000
F2000.0
G01 X29.626 Y109.351 Z-2.000
F2000.0
G03 X24.526 Y104.251 I0.000 J-5.100
G03 X29.626 Y99.151 I5.100 J0.000
G03 X34.726 Y104.251 I0.000 J5.100
G03 X29.626 Y109.351 I-5.100 J0.000
F2000.0
G01 X29.626 Y111.751 Z-2.000
F2000.0
G03 X22.126 Y104.251 I0.000 J-7.500
G03 X29.626 Y96.751 I7.500 J0.000
G03 X37.126 Y104.251 I0.000 J7.500
G03 X29.626 Y111.751 I-7.500 J0.000
F2000.0
G00 X29.626 Y111.751 Z5.080
F2000.0
G00 X29.626 Y104.551 Z5.080
F500.0
G1 X29.626 Y104.551 Z-4.000
F2000.0
G03 X29.326 Y104.251 I0.000 J-0.300
G03 X29.626 Y103.951 I0.300 J0.000
G03 X29.926 Y104.251 I0.000 J0.300
G03 X29.626 Y104.551 I-0.300 J0.000
F2000.0
G01 X29.626 Y106.951 Z-4.000
F2000.0
G03 X26.926 Y104.251 I0.000 J-2.700
G03 X29.626 Y101.551 I2.700 J0.000
G03 X32.326 Y104.251 I0.000 J2.700
G03 X29.626 Y106.951 I-2.700 J0.000
F2000.0
G01 X29.626 Y109.351 Z-4.000
F2000.0
G03 X24.526 Y104.251 I0.000 J-5.100
G03 X29.626 Y99.151 I5.100 J0.000
G03 X34.726 Y104.251 I0.000 J5.100
G03 X29.626 Y109.351 I-5.100 J0.000
F2000.0
G01 X29.626 Y111.751 Z-4.000
F2000.0
G03 X22.126 Y104.251 I0.000 J-7.500
G03 X29.626 Y96.751 I7.500 J0.000
G03 X37.126 Y104.251 I0.000 J7.500
G03 X29.626 Y111.751 I-7.500 J0.000
F2000.0
G00 X29.626 Y111.751 Z5.080
F2000.0
G00 X29.626 Y66.451 Z5.080
F500.0
G1 X29.626 Y66.451 Z-2.000
F2000.0
G03 X29.926 Y66.751 I0.000 J0.300
G03 X29.626 Y67.051 I-0.300 J0.000
G03 X29.326 Y66.751 I0.000 J-0.300
G03 X29.626 Y66.451 I0.300 J0.000
F2000.0
G01 X29.626 Y64.051 Z-2.000
F2000.0
G03 X32.326 Y66.751 I0.000 J2.700
G03 X29.626 Y69.451 I-2.700 J0.000
G03 X26.926 Y66.751 I0.000 J-2.700
G03 X29.626 Y64.051 I2.700 J0.000
F2000.0
G01 X29.626 Y61.651 Z-2.000
F2000.0
G03 X34.726 Y66.751 I0.000 J5.100
G03 X29.626 Y71.851 I-5.100 J0.000
G03 X24.526 Y66.751 I0.000 J-5.100
G03 X29.626 Y61.651 I5.100 J0.000
F2000.0
G01 X29.626 Y59.251 Z-2.000
F2000.0
G03 X37.126 Y66.751 I0.000 J7.500
G03 X29.626 Y74.251 I-7.500 J0.000
G03 X22.126 Y66.751 I0.000 J-7.500
G03 X29.626 Y59.251 I7.500 J0.000
F2000.0
G00 X29.626 Y59.251 Z5.080
F2000.0
G00 X29.626 Y66.451 Z5.080
F500.0
G1 X29.626 Y66.451 Z-4.000
F2000.0
G03 X29.926 Y66.751 I0.000 J0.300
G03 X29.626 Y67.051 I-0.300 J0.000
G03 X29.326 Y66.751 I0.000 J-0.300
G03 X29.626 Y66.451 I0.300 J0.000
F2000.0
G01 X29.626 Y64.051 Z-4.000
F2000.0
G03 X32.326 Y66.751 I0.000 J2.700
G03 X29.626 Y69.451 I-2.700 J0.000
G03 X26.926 Y66.751 I0.000 J-2.700
G03 X29.626 Y64.051 I2.700 J0.000
F2000.0
G01 X29.626 Y61.651 Z-4.000
F2000.0
G03 X34.726 Y66.751 I0.000 J5.100
G03 X29.626 Y71.851 I-5.100 J0.000
G03 X24.526 Y66.751 I0.000 J-5.100
G03 X29.626 Y61.651 I5.100 J0.000
F2000.0
G01 X29.626 Y59.251 Z-4.000
F2000.0
G03 X37.126 Y66.751 I0.000 J7.500
G03 X29.626 Y74.251 I-7.500 J0.000
G03 X22.126 Y66.751 I0.000 J-7.500
G03 X29.626 Y59.251 I7.500 J0.000
F2000.0
G00 X29.626 Y59.251 Z5.080
F2000.0
G00 X66.826 Y67.042 Z5.080
F500.0
G1 X66.826 Y67.042 Z-2.000
F2000.0
G03 X67.126 Y66.742 I0.300 J0.000
G03 X67.426 Y67.042 I0.000 J0.300
G03 X67.126 Y67.342 I-0.300 J0.000
G03 X66.826 Y67.042 I0.000 J-0.300
F2000.0
G01 X64.426 Y67.042 Z-2.000
F2000.0
G03 X67.126 Y64.342 I2.700 J0.000
G03 X69.826 Y67.042 I0.000 J2.700
G03 X67.126 Y69.742 I-2.700 J0.000
G03 X64.426 Y67.042 I0.000 J-2.700
F2000.0
G01 X62.026 Y67.042 Z-2.000
F2000.0
G03 X67.126 Y61.942 I5.100 J0.000
G03 X72.226 Y67.042 I0.000 J5.100
G03 X67.126 Y72.142 I-5.100 J0.000
G03 X62.026 Y67.042 I0.000 J-5.100
F2000.0
G01 X59.626 Y67.042 Z-2.000
F2000.0
G03 X67.126 Y59.542 I7.500 J0.000
G03 X74.626 Y67.042 I0.000 J7.500
G03 X67.126 Y74.542 I-7.500 J0.000
G03 X59.626 Y67.042 I0.000 J-7.500
F2000.0
G00 X59.626 Y67.042 Z5.080
F2000.0
G00 X66.826 Y67.042 Z5.080
F500.0
G1 X66.826 Y67.042 Z-4.000
F2000.0
G03 X67.126 Y66.742 I0.300 J0.000
G03 X67.426 Y67.042 I0.000 J0.300
G03 X67.126 Y67.342 I-0.300 J0.000
G03 X66.826 Y67.042 I0.000 J-0.300
F2000.0
G01 X64.426 Y67.042 Z-4.000
F2000.0
G03 X67.126 Y64.342 I2.700 J0.000
G03 X69.826 Y67.042 I0.000 J2.700
G03 X67.126 Y69.742 I-2.700 J0.000
G03 X64.426 Y67.042 I0.000 J-2.700
F2000.0
G01 X62.026 Y67.042 Z-4.000
F2000.0
G03 X67.126 Y61.942 I5.100 J0.000
G03 X72.226 Y67.042 I0.000 J5.100
G03 X67.126 Y72.142 I-5.100 J0.000
G03 X62.026 Y67.042 I0.000 J-5.100
F2000.0
G01 X59.626 Y67.042 Z-4.000
F2000.0
G03 X67.126 Y59.542 I7.500 J0.000
G03 X74.626 Y67.042 I0.000 J7.500
G03 X67.126 Y74.542 I-7.500 J0.000
G03 X59.626 Y67.042 I0.000 J-7.500
F2000.0
G00 X59.626 Y67.042 Z5.080
F2000.0
G00 X104.626 Y67.342 Z5.080
F500.0
G1 X104.626 Y67.342 Z-2.000
F2000.0
G03 X104.326 Y67.042 I0.000 J-0.300
G03 X104.626 Y66.742 I0.300 J0.000
G03 X104.926 Y67.042 I0.000 J0.300
G03 X104.626 Y67.342 I-0.300 J0.000
F2000.0
G01 X104.626 Y69.742 Z-2.000
F2000.0
G03 X101.926 Y67.042 I0.000 J-2.700
G03 X104.626 Y64.342 I2.700 J0.000
G03 X107.326 Y67.042 I0.000 J2.700
G03 X104.626 Y69.742 I-2.700 J0.000
F2000.0
G01 X104.626 Y72.142 Z-2.000
F2000.0
G03 X99.526 Y67.042 I0.000 J-5.100
G03 X104.626 Y61.942 I5.100 J0.000
G03 X109.726 Y67.042 I0.000 J5.100
G03 X104.626 Y72.142 I-5.100 J0.000
F2000.0
G01 X104.626 Y74.542 Z-2.000
F2000.0
G03 X97.126 Y67.042 I0.000 J-7.500
G03 X104.626 Y59.542 I7.500 J0.000
G03 X112.126 Y67.042 I0.000 J7.500
G03 X104.626 Y74.542 I-7.500 J0.000
F2000.0
G00 X104.626 Y74.542 Z5.080
F2000.0
G00 X104.626 Y67.342 Z5.080
F500.0
G1 X104.626 Y67.342 Z-4.000
F2000.0
G03 X104.326 Y67.042 I0.000 J-0.300
G03 X104.626 Y66.742 I0.300 J0.000
G03 X104.926 Y67.042 I0.000 J0.300
G03 X104.626 Y67.342 I-0.300 J0.000
F2000.0
G01 X104.626 Y69.742 Z-4.000
F2000.0
G03 X101.926 Y67.042 I0.000 J-2.700
G03 X104.626 Y64.342 I2.700 J0.000
G03 X107.326 Y67.042 I0.000 J2.700
G03 X104.626 Y69.742 I-2.700 J0.000
F2000.0
G01 X104.626 Y72.142 Z-4.000
F2000.0
G03 X99.526 Y67.042 I0.000 J-5.100
G03 X104.626 Y61.942 I5.100 J0.000
G03 X109.726 Y67.042 I0.000 J5.100
G03 X104.626 Y72.142 I-5.100 J0.000
F2000.0
G01 X104.626 Y74.542 Z-4.000
F2000.0
G03 X97.126 Y67.042 I0.000 J-7.500
G03 X104.626 Y59.542 I7.500 J0.000
G03 X112.126 Y67.042 I0.000 J7.500
G03 X104.626 Y74.542 I-7.500 J0.000
F2000.0
G00 X104.626 Y74.542 Z5.080
F2000.0
G00 X141.826 Y67.042 Z5.080
F500.0
G1 X141.826 Y67.042 Z-2.000
F2000.0
G03 X142.126 Y66.742 I0.300 J0.000
G03 X142.426 Y67.042 I0.000 J0.300
G03 X142.126 Y67.342 I-0.300 J0.000
G03 X141.826 Y67.042 I0.000 J-0.300
F2000.0
G01 X139.426 Y67.042 Z-2.000
F2000.0
G03 X142.126 Y64.342 I2.700 J0.000
G03 X144.826 Y67.042 I0.000 J2.700
G03 X142.126 Y69.742 I-2.700 J0.000
G03 X139.426 Y67.042 I0.000 J-2.700
F2000.0
G01 X137.026 Y67.042 Z-2.000
F2000.0
G03 X142.126 Y61.942 I5.100 J0.000
G03 X147.226 Y67.042 I0.000 J5.100
G03 X142.126 Y72.142 I-5.100 J0.000
G03 X137.026 Y67.042 I0.000 J-5.100
F2000.0
G01 X134.626 Y67.042 Z-2.000
F2000.0
G03 X142.126 Y59.542 I7.500 J0.000
G03 X149.626 Y67.042 I0.000 J7.500
G03 X142.126 Y74.542 I-7.500 J0.000
G03 X134.626 Y67.042 I0.000 J-7.500
F2000.0
G00 X134.626 Y67.042 Z5.080
F2000.0
G00 X141.826 Y67.042 Z5.080
F500.0
G1 X141.826 Y67.042 Z-4.000
F2000.0
G03 X142.126 Y66.742 I0.300 J0.000
G03 X142.426 Y67.042 I0.000 J0.300
G03 X142.126 Y67.342 I-0.300 J0.000
G03 X141.826 Y67.042 I0.000 J-0.300
F2000.0
G01 X139.426 Y67.042 Z-4.000
F2000.0
G03 X142.126 Y64.342 I2.700 J0.000
G03 X144.826 Y67.042 I0.000 J2.700
G03 X142.126 Y69.742 I-2.700 J0.000
G03 X139.426 Y67.042 I0.000 J-2.700
F2000.0
G01 X137.026 Y67.042 Z-4.000
F2000.0
G03 X142.126 Y61.942 I5.100 J0.000
G03 X147.226 Y67.042 I0.000 J5.100
G03 X142.126 Y72.142 I-5.100 J0.000
G03 X137.026 Y67.042 I0.000 J-5.100
F2000.0
G01 X134.626 Y67.042 Z-4.000
F2000.0
G03 X142.126 Y59.542 I7.500 J0.000
G03 X149.626 Y67.042 I0.000 J7.500
G03 X142.126 Y74.542 I-7.500 J0.000
G03 X134.626 Y67.042 I0.000 J-7.500
F2000.0
G00 X134.626 Y67.042 Z5.080
F2000.0
G00 X142.126 Y29.242 Z5.080
F500.0
G1 X142.126 Y29.242 Z-2.000
F2000.0
G03 X142.426 Y29.542 I0.000 J0.300
G03 X142.126 Y29.842 I-0.300 J0.000
G03 X141.826 Y29.542 I0.000 J-0.300
G03 X142.126 Y29.242 I0.300 J0.000
F2000.0
G01 X142.126 Y26.842 Z-2.000
F2000.0
G03 X144.826 Y29.542 I0.000 J2.700
G03 X142.126 Y32.242 I-2.700 J0.000
G03 X139.426 Y29.542 I0.000 J-2.700
G03 X142.126 Y26.842 I2.700 J0.000
F2000.0
G01 X142.126 Y24.442 Z-2.000
F2000.0
G03 X147.226 Y29.542 I0.000 J5.100
G03 X142.126 Y34.642 I-5.100 J0.000
G03 X137.026 Y29.542 I0.000 J-5.100
G03 X142.126 Y24.442 I5.100 J0.000
F2000.0
G01 X142.126 Y22.042 Z-2.000
F2000.0
G03 X149.626 Y29.542 I0.000 J7.500
G03 X142.126 Y37.042 I-7.500 J0.000
G03 X134.626 Y29.542 I0.000 J-7.500
G03 X142.126 Y22.042 I7.500 J0.000
F2000.0
G00 X142.126 Y22.042 Z5.080
F2000.0
G00 X142.126 Y29.242 Z5.080
F500.0
G1 X142.126 Y29.242 Z-4.000
F2000.0
G03 X142.426 Y29.542 I0.000 J0.300
G03 X142.126 Y29.842 I-0.300 J0.000
G03 X141.826 Y29.542 I0.000 J-0.300
G03 X142.126 Y29.242 I0.300 J0.000
F2000.0
G01 X142.126 Y26.842 Z-4.000
F2000.0
G03 X144.826 Y29.542 I0.000 J2.700
G03 X142.126 Y32.242 I-2.700 J0.000
G03 X139.426 Y29.542 I0.000 J-2.700
G03 X142.126 Y26.842 I2.700 J0.000
F2000.0
G01 X142.126 Y24.442 Z-4.000
F2000.0
G03 X147.226 Y29.542 I0.000 J5.100
G03 X142.126 Y34.642 I-5.100 J0.000
G03 X137.026 Y29.542 I0.000 J-5.100
G03 X142.126 Y24.442 I5.100 J0.000
F2000.0
G01 X142.126 Y22.042 Z-4.000
F2000.0
G03 X149.626 Y29.542 I0.000 J7.500
G03 X142.126 Y37.042 I-7.500 J0.000
G03 X134.626 Y29.542 I0.000 J-7.500
G03 X142.126 Y22.042 I7.500 J0.000
F2000.0
G00 X142.126 Y22.042 Z5.080
F2000.0
G00 X104.626 Y29.842 Z5.080
F500.0
G1 X104.626 Y29.842 Z-2.000
F2000.0
G03 X104.326 Y29.542 I0.000 J-0.300
G03 X104.626 Y29.242 I0.300 J0.000
G03 X104.926 Y29.542 I0.000 J0.300
G03 X104.626 Y29.842 I-0.300 J0.000
F2000.0
G01 X104.626 Y32.242 Z-2.000
F2000.0
G03 X101.926 Y29.542 I0.000 J-2.700
G03 X104.626 Y26.842 I2.700 J0.000
G03 X107.326 Y29.542 I0.000 J2.700
G03 X104.626 Y32.242 I-2.700 J0.000
F2000.0
G01 X104.626 Y34.642 Z-2.000
F2000.0
G03 X99.526 Y29.542 I0.000 J-5.100
G03 X104.626 Y24.442 I5.100 J0.000
G03 X109.726 Y29.542 I0.000 J5.100
G03 X104.626 Y34.642 I-5.100 J0.000
F2000.0
G01 X104.626 Y37.042 Z-2.000
F2000.0
G03 X97.126 Y29.542 I0.000 J-7.500
G03 X104.626 Y22.042 I7.500 J0.000
G03 X112.126 Y29.542 I0.000 J7.500
G03 X104.626 Y37.042 I-7.500 J0.000
F2000.0
G00 X104.626 Y37.042 Z5.080
F2000.0
G00 X104.626 Y29.842 Z5.080
F500.0
G1 X104.626 Y29.842 Z-4.000
F2000.0
G03 X104.326 Y29.542 I0.000 J-0.300
G03 X104.626 Y29.242 I0.300 J0.000
G03 X104.926 Y29.542 I0.000 J0.300
G03 X104.626 Y29.842 I-0.300 J0.000
F2000.0
G01 X104.626 Y32.242 Z-4.000
F2000.0
G03 X101.926 Y29.542 I0.000 J-2.700
G03 X104.626 Y26.842 I2.700 J0.000
G03 X107.326 Y29.542 I0.000 J2.700
G03 X104.626 Y32.242 I-2.700 J0.000
F2000.0
G01 X104.626 Y34.642 Z-4.000
F2000.0
G03 X99.526 Y29.542 I0.000 J-5.100
G03 X104.626 Y24.442 I5.100 J0.000
G03 X109.726 Y29.542 I0.000 J5.100
G03 X104.626 Y34.642 I-5.100 J0.000
F2000.0
G01 X104.626 Y37.042 Z-4.000
F2000.0
G03 X97.126 Y29.542 I0.000 J-7.500
G03 X104.626 Y22.042 I7.500 J0.000
G03 X112.126 Y29.542 I0.000 J7.500
G03 X104.626 Y37.042 I-7.500 J0.000
F2000.0
G00 X104.626 Y37.042 Z5.080
F2000.0
G00 X66.826 Y29.542 Z5.080
F500.0
G1 X66.826 Y29.542 Z-2.000
F2000.0
G03 X67.126 Y29.242 I0.300 J0.000
G03 X67.426 Y29.542 I0.000 J0.300
G03 X67.126 Y29.842 I-0.300 J0.000
G03 X66.826 Y29.542 I0.000 J-0.300
F2000.0
G01 X64.426 Y29.542 Z-2.000
F2000.0
G03 X67.126 Y26.842 I2.700 J0.000
G03 X69.826 Y29.542 I0.000 J2.700
G03 X67.126 Y32.242 I-2.700 J0.000
G03 X64.426 Y29.542 I0.000 J-2.700
F2000.0
G01 X62.026 Y29.542 Z-2.000
F2000.0
G03 X67.126 Y24.442 I5.100 J0.000
G03 X72.226 Y29.542 I0.000 J5.100
G03 X67.126 Y34.642 I-5.100 J0.000
G03 X62.026 Y29.542 I0.000 J-5.100
F2000.0
G01 X59.626 Y29.542 Z-2.000
F2000.0
G03 X67.126 Y22.042 I7.500 J0.000
G03 X74.626 Y29.542 I0.000 J7.500
G03 X67.126 Y37.042 I-7.500 J0.000
G03 X59.626 Y29.542 I0.000 J-7.500
F2000.0
G00 X59.626 Y29.542 Z5.080
F2000.0
G00 X66.826 Y29.542 Z5.080
F500.0
G1 X66.826 Y29.542 Z-4.000
F2000.0
G03 X67.126 Y29.242 I0.300 J0.000
G03 X67.426 Y29.542 I0.000 J0.300
G03 X67.126 Y29.842 I-0.300 J0.000
G03 X66.826 Y29.542 I0.000 J-0.300
F2000.0
G01 X64.426 Y29.542 Z-4.000
F2000.0
G03 X67.126 Y26.842 I2.700 J0.000
G03 X69.826 Y29.542 I0.000 J2.700
G03 X67.126 Y32.242 I-2.700 J0.000
G03 X64.426 Y29.542 I0.000 J-2.700
F2000.0
G01 X62.026 Y29.542 Z-4.000
F2000.0
G03 X67.126 Y24.442 I5.100 J0.000
G03 X72.226 Y29.542 I0.000 J5.100
G03 X67.126 Y34.642 I-5.100 J0.000
G03 X62.026 Y29.542 I0.000 J-5.100
F2000.0
G01 X59.626 Y29.542 Z-4.000
F2000.0
G03 X67.126 Y22.042 I7.500 J0.000
G03 X74.626 Y29.542 I0.000 J7.500
G03 X67.126 Y37.042 I-7.500 J0.000
G03 X59.626 Y29.542 I0.000 J-7.500
F2000.0
G00 X59.626 Y29.542 Z5.080
F2000.0
G00 X29.326 Y29.251 Z5.080
F500.0
G1 X29.326 Y29.251 Z-2.000
F2000.0
G03 X29.626 Y28.951 I0.300 J0.000
G03 X29.926 Y29.251 I0.000 J0.300
G03 X29.626 Y29.551 I-0.300 J0.000
G03 X29.326 Y29.251 I0.000 J-0.300
F2000.0
G01 X26.926 Y29.251 Z-2.000
F2000.0
G03 X29.626 Y26.551 I2.700 J0.000
G03 X32.326 Y29.251 I0.000 J2.700
G03 X29.626 Y31.951 I-2.700 J0.000
G03 X26.926 Y29.251 I0.000 J-2.700
F2000.0
G01 X24.526 Y29.251 Z-2.000
F2000.0
G03 X29.626 Y24.151 I5.100 J0.000
G03 X34.726 Y29.251 I0.000 J5.100
G03 X29.626 Y34.351 I-5.100 J0.000
G03 X24.526 Y29.251 I0.000 J-5.100
F2000.0
G01 X22.126 Y29.251 Z-2.000
F2000.0
G03 X29.626 Y21.751 I7.500 J0.000
G03 X37.126 Y29.251 I0.000 J7.500
G03 X29.626 Y36.751 I-7.500 J0.000
G03 X22.126 Y29.251 I0.000 J-7.500
F2000.0
G00 X22.126 Y29.251 Z5.080
F2000.0
G00 X29.326 Y29.251 Z5.080
F500.0
G1 X29.326 Y29.251 Z-4.000
F2000.0
G03 X29.626 Y28.951 I0.300 J0.000
G03 X29.926 Y29.251 I0.000 J0.300
G03 X29.626 Y29.551 I-0.300 J0.000
G03 X29.326 Y29.251 I0.000 J-0.300
F2000.0
G01 X26.926 Y29.251 Z-4.000
F2000.0
G03 X29.626 Y26.551 I2.700 J0.000
G03 X32.326 Y29.251 I0.000 J2.700
G03 X29.626 Y31.951 I-2.700 J0.000
G03 X26.926 Y29.251 I0.000 J-2.700
F2000.0
G01 X24.526 Y29.251 Z-4.000
F2000.0
G03 X29.626 Y24.151 I5.100 J0.000
G03 X34.726 Y29.251 I0.000 J5.100
G03 X29.626 Y34.351 I-5.100 J0.000
G03 X24.526 Y29.251 I0.000 J-5.100
F2000.0
G01 X22.126 Y29.251 Z-4.000
F2000.0
G03 X29.626 Y21.751 I7.500 J0.000
G03 X37.126 Y29.251 I0.000 J7.500
G03 X29.626 Y36.751 I-7.500 J0.000
G03 X22.126 Y29.251 I0.000 J-7.500
F2000.0
G00 X22.126 Y29.251 Z5.080
(|---------------------------------------)
(| Toolpath:- 'Small'     )
(|---------------------------------------)
S18000
G04 P5
F2000.0
G00 X29.726 Y29.251 Z5.080
F500.0
G1 X29.726 Y29.251 Z-6.000
F2000.0
G03 X29.626 Y29.351 I-0.100 J0.000
G03 X29.526 Y29.251 I0.000 J-0.100
G03 X29.626 Y29.151 I0.100 J0.000
G03 X29.726 Y29.251 I0.000 J0.100
F2000.0
G01 X32.126 Y29.251 Z-6.000
F2000.0
G03 X29.626 Y31.751 I-2.500 J0.000
G03 X27.126 Y29.251 I0.000 J-2.500
G03 X29.626 Y26.751 I2.500 J0.000
G03 X32.126 Y29.251 I0.000 J2.500
F2000.0
G00 X32.126 Y29.251 Z5.080
F2000.0
G00 X29.726 Y29.251 Z5.080
F500.0
G1 X29.726 Y29.251 Z-8.000
F2000.0
G03 X29.626 Y29.351 I-0.100 J0.000
G03 X29.526 Y29.251 I0.000 J-0.100
G03 X29.626 Y29.151 I0.100 J0.000
G03 X29.726 Y29.251 I0.000 J0.100
F2000.0
G01 X32.126 Y29.251 Z-8.000
F2000.0
G03 X29.626 Y31.751 I-2.500 J0.000
G03 X27.126 Y29.251 I0.000 J-2.500
G03 X29.626 Y26.751 I2.500 J0.000
G03 X32.126 Y29.251 I0.000 J2.500
F2000.0
G00 X32.126 Y29.251 Z5.080
F2000.0
G00 X29.726 Y29.251 Z5.080
F500.0
G1 X29.726 Y29.251 Z-10.000
F2000.0
G03 X29.626 Y29.351 I-0.100 J0.000
G03 X29.526 Y29.251 I0.000 J-0.100
G03 X29.626 Y29.151 I0.100 J0.000
G03 X29.726 Y29.251 I0.000 J0.100
F2000.0
G01 X32.126 Y29.251 Z-10.000
F2000.0
G03 X29.626 Y31.751 I-2.500 J0.000
G03 X27.126 Y29.251 I0.000 J-2.500
G03 X29.626 Y26.751 I2.500 J0.000
G03 X32.126 Y29.251 I0.000 J2.500
F2000.0
G00 X32.126 Y29.251 Z5.080
F2000.0
G00 X67.026 Y29.542 Z5.080
F500.0
G1 X67.026 Y29.542 Z-6.000
F2000.0
G03 X67.126 Y29.442 I0.100 J0.000
G03 X67.226 Y29.542 I0.000 J0.100
G03 X67.126 Y29.642 I-0.100 J0.000
G03 X67.026 Y29.542 I0.000 J-0.100
F2000.0
G01 X64.626 Y29.542 Z-6.000
F2000.0
G03 X67.126 Y27.042 I2.500 J0.000
G03 X69.626 Y29.542 I0.000 J2.500
G03 X67.126 Y32.042 I-2.500 J0.000
G03 X64.626 Y29.542 I0.000 J-2.500
F2000.0
G00 X64.626 Y29.542 Z5.080
F2000.0
G00 X67.026 Y29.542 Z5.080
F500.0
G1 X67.026 Y29.542 Z-8.000
F2000.0
G03 X67.126 Y29.442 I0.100 J0.000
G03 X67.226 Y29.542 I0.000 J0.100
G03 X67.126 Y29.642 I-0.100 J0.000
G03 X67.026 Y29.542 I0.000 J-0.100
F2000.0
G01 X64.626 Y29.542 Z-8.000
F2000.0
G03 X67.126 Y27.042 I2.500 J0.000
G03 X69.626 Y29.542 I0.000 J2.500
G03 X67.126 Y32.042 I-2.500 J0.000
G03 X64.626 Y29.542 I0.000 J-2.500
F2000.0
G00 X64.626 Y29.542 Z5.080
F2000.0
G00 X67.026 Y29.542 Z5.080
F500.0
G1 X67.026 Y29.542 Z-10.000
F2000.0
G03 X67.126 Y29.442 I0.100 J0.000
G03 X67.226 Y29.542 I0.000 J0.100
G03 X67.126 Y29.642 I-0.100 J0.000
G03 X67.026 Y29.542 I0.000 J-0.100
F2000.0
G01 X64.626 Y29.542 Z-10.000
F2000.0
G03 X67.126 Y27.042 I2.500 J0.000
G03 X69.626 Y29.542 I0.000 J2.500
G03 X67.126 Y32.042 I-2.500 J0.000
G03 X64.626 Y29.542 I0.000 J-2.500
F2000.0
G00 X64.626 Y29.542 Z5.080
F2000.0
G00 X67.026 Y67.042 Z5.080
F500.0
G1 X67.026 Y67.042 Z-6.000
F2000.0
G03 X67.126 Y66.942 I0.100 J0.000
G03 X67.226 Y67.042 I0.000 J0.100
G03 X67.126 Y67.142 I-0.100 J0.000
G03 X67.026 Y67.042 I0.000 J-0.100
F2000.0
G01 X64.626 Y67.042 Z-6.000
F2000.0
G03 X67.126 Y64.542 I2.500 J0.000
G03 X69.626 Y67.042 I0.000 J2.500
G03 X67.126 Y69.542 I-2.500 J0.000
G03 X64.626 Y67.042 I0.000 J-2.500
F2000.0
G00 X64.626 Y67.042 Z5.080
F2000.0
G00 X67.026 Y67.042 Z5.080
F500.0
G1 X67.026 Y67.042 Z-8.000
F2000.0
G03 X67.126 Y66.942 I0.100 J0.000
G03 X67.226 Y67.042 I0.000 J0.100
G03 X67.126 Y67.142 I-0.100 J0.000
G03 X67.026 Y67.042 I0.000 J-0.100
F2000.0
G01 X64.626 Y67.042 Z-8.000
F2000.0
G03 X67.126 Y64.542 I2.500 J0.000
G03 X69.626 Y67.042 I0.000 J2.500
G03 X67.126 Y69.542 I-2.500 J0.000
G03 X64.626 Y67.042 I0.000 J-2.500
F2000.0
G00 X64.626 Y67.042 Z5.080
F2000.0
G00 X67.026 Y67.042 Z5.080
F500.0
G1 X67.026 Y67.042 Z-10.000
F2000.0
G03 X67.126 Y66.942 I0.100 J0.000
G03 X67.226 Y67.042 I0.000 J0.100
G03 X67.126 Y67.142 I-0.100 J0.000
G03 X67.026 Y67.042 I0.000 J-0.100
F2000.0
G01 X64.626 Y67.042 Z-10.000
F2000.0
G03 X67.126 Y64.542 I2.500 J0.000
G03 X69.626 Y67.042 I0.000 J2.500
G03 X67.126 Y69.542 I-2.500 J0.000
G03 X64.626 Y67.042 I0.000 J-2.500
F2000.0
G00 X64.626 Y67.042 Z5.080
F2000.0
G00 X29.626 Y66.851 Z5.080
F500.0
G1 X29.626 Y66.851 Z-6.000
F2000.0
G03 X29.526 Y66.751 I0.000 J-0.100
G03 X29.626 Y66.651 I0.100 J0.000
G03 X29.726 Y66.751 I0.000 J0.100
G03 X29.626 Y66.851 I-0.100 J0.000
F2000.0
G01 X29.626 Y69.251 Z-6.000
F2000.0
G03 X27.126 Y66.751 I0.000 J-2.500
G03 X29.626 Y64.251 I2.500 J0.000
G03 X32.126 Y66.751 I0.000 J2.500
G03 X29.626 Y69.251 I-2.500 J0.000
F2000.0
G00 X29.626 Y69.251 Z5.080
F2000.0
G00 X29.626 Y66.851 Z5.080
F500.0
G1 X29.626 Y66.851 Z-8.000
F2000.0
G03 X29.526 Y66.751 I0.000 J-0.100
G03 X29.626 Y66.651 I0.100 J0.000
G03 X29.726 Y66.751 I0.000 J0.100
G03 X29.626 Y66.851 I-0.100 J0.000
F2000.0
G01 X29.626 Y69.251 Z-8.000
F2000.0
G03 X27.126 Y66.751 I0.000 J-2.500
G03 X29.626 Y64.251 I2.500 J0.000
G03 X32.126 Y66.751 I0.000 J2.500
G03 X29.626 Y69.251 I-2.500 J0.000
F2000.0
G00 X29.626 Y69.251 Z5.080
F2000.0
G00 X29.626 Y66.851 Z5.080
F500.0
G1 X29.626 Y66.851 Z-10.000
F2000.0
G03 X29.526 Y66.751 I0.000 J-0.100
G03 X29.626 Y66.651 I0.100 J0.000
G03 X29.726 Y66.751 I0.000 J0.100
G03 X29.626 Y66.851 I-0.100 J0.000
F2000.0
G01 X29.626 Y69.251 Z-10.000
F2000.0
G03 X27.126 Y66.751 I0.000 J-2.500
G03 X29.626 Y64.251 I2.500 J0.000
G03 X32.126 Y66.751 I0.000 J2.500
G03 X29.626 Y69.251 I-2.500 J0.000
F2000.0
G00 X29.626 Y69.251 Z5.080
F2000.0
G00 X29.526 Y104.251 Z5.080
F500.0
G1 X29.526 Y104.251 Z-6.000
F2000.0
G03 X29.626 Y104.151 I0.100 J0.000
G03 X29.726 Y104.251 I0.000 J0.100
G03 X29.626 Y104.351 I-0.100 J0.000
G03 X29.526 Y104.251 I0.000 J-0.100
F2000.0
G01 X27.126 Y104.251 Z-6.000
F2000.0
G03 X29.626 Y101.751 I2.500 J0.000
G03 X32.126 Y104.251 I0.000 J2.500
G03 X29.626 Y106.751 I-2.500 J0.000
G03 X27.126 Y104.251 I0.000 J-2.500
F2000.0
G00 X27.126 Y104.251 Z5.080
F2000.0
G00 X29.526 Y104.251 Z5.080
F500.0
G1 X29.526 Y104.251 Z-8.000
F2000.0
G03 X29.626 Y104.151 I0.100 J0.000
G03 X29.726 Y104.251 I0.000 J0.100
G03 X29.626 Y104.351 I-0.100 J0.000
G03 X29.526 Y104.251 I0.000 J-0.100
F2000.0
G01 X27.126 Y104.251 Z-8.000
F2000.0
G03 X29.626 Y101.751 I2.500 J0.000
G03 X32.126 Y104.251 I0.000 J2.500
G03 X29.626 Y106.751 I-2.500 J0.000
G03 X27.126 Y104.251 I0.000 J-2.500
F2000.0
G00 X27.126 Y104.251 Z5.080
F2000.0
G00 X29.526 Y104.251 Z5.080
F500.0
G1 X29.526 Y104.251 Z-10.000
F2000.0
G03 X29.626 Y104.151 I0.100 J0.000
G03 X29.726 Y104.251 I0.000 J0.100
G03 X29.626 Y104.351 I-0.100 J0.000
G03 X29.526 Y104.251 I0.000 J-0.100
F2000.0
G01 X27.126 Y104.251 Z-10.000
F2000.0
G03 X29.626 Y101.751 I2.500 J0.000
G03 X32.126 Y104.251 I0.000 J2.500
G03 X29.626 Y106.751 I-2.500 J0.000
G03 X27.126 Y104.251 I0.000 J-2.500
F2000.0
G00 X27.126 Y104.251 Z5.080
F2000.0
G00 X29.626 Y141.851 Z5.080
F500.0
G1 X29.626 Y141.851 Z-6.000
F2000.0
G03 X29.526 Y141.751 I0.000 J-0.100
G03 X29.626 Y141.651 I0.100 J0.000
G03 X29.726 Y141.751 I0.000 J0.100
G03 X29.626 Y141.851 I-0.100 J0.000
F2000.0
G01 X29.626 Y144.251 Z-6.000
F2000.0
G03 X27.126 Y141.751 I0.000 J-2.500
G03 X29.626 Y139.251 I2.500 J0.000
G03 X32.126 Y141.751 I0.000 J2.500
G03 X29.626 Y144.251 I-2.500 J0.000
F2000.0
G00 X29.626 Y144.251 Z5.080
F2000.0
G00 X29.626 Y141.851 Z5.080
F500.0
G1 X29.626 Y141.851 Z-8.000
F2000.0
G03 X29.526 Y141.751 I0.000 J-0.100
G03 X29.626 Y141.651 I0.100 J0.000
G03 X29.726 Y141.751 I0.000 J0.100
G03 X29.626 Y141.851 I-0.100 J0.000
F2000.0
G01 X29.626 Y144.251 Z-8.000
F2000.0
G03 X27.126 Y141.751 I0.000 J-2.500
G03 X29.626 Y139.251 I2.500 J0.000
G03 X32.126 Y141.751 I0.000 J2.500
G03 X29.626 Y144.251 I-2.500 J0.000
F2000.0
G00 X29.626 Y144.251 Z5.080
F2000.0
G00 X29.626 Y141.851 Z5.080
F500.0
G1 X29.626 Y141.851 Z-10.000
F2000.0
G03 X29.526 Y141.751 I0.000 J-0.100
G03 X29.626 Y141.651 I0.100 J0.000
G03 X29.726 Y141.751 I0.000 J0.100
G03 X29.626 Y141.851 I-0.100 J0.000
F2000.0
G01 X29.626 Y144.251 Z-10.000
F2000.0
G03 X27.126 Y141.751 I0.000 J-2.500
G03 X29.626 Y139.251 I2.500 J0.000
G03 X32.126 Y141.751 I0.000 J2.500
G03 X29.626 Y144.251 I-2.500 J0.000
F2000.0
G00 X29.626 Y144.251 Z5.080
F2000.0
G00 X67.126 Y142.142 Z5.080
F500.0
G1 X67.126 Y142.142 Z-6.000
F2000.0
G03 X67.026 Y142.042 I0.000 J-0.100
G03 X67.126 Y141.942 I0.100 J0.000
G03 X67.226 Y142.042 I0.000 J0.100
G03 X67.126 Y142.142 I-0.100 J0.000
F2000.0
G01 X67.126 Y144.542 Z-6.000
F2000.0
G03 X64.626 Y142.042 I0.000 J-2.500
G03 X67.126 Y139.542 I2.500 J0.000
G03 X69.626 Y142.042 I0.000 J2.500
G03 X67.126 Y144.542 I-2.500 J0.000
F2000.0
G00 X67.126 Y144.542 Z5.080
F2000.0
G00 X67.126 Y142.142 Z5.080
F500.0
G1 X67.126 Y142.142 Z-8.000
F2000.0
G03 X67.026 Y142.042 I0.000 J-0.100
G03 X67.126 Y141.942 I0.100 J0.000
G03 X67.226 Y142.042 I0.000 J0.100
G03 X67.126 Y142.142 I-0.100 J0.000
F2000.0
G01 X67.126 Y144.542 Z-8.000
F2000.0
G03 X64.626 Y142.042 I0.000 J-2.500
G03 X67.126 Y139.542 I2.500 J0.000
G03 X69.626 Y142.042 I0.000 J2.500
G03 X67.126 Y144.542 I-2.500 J0.000
F2000.0
G00 X67.126 Y144.542 Z5.080
F2000.0
G00 X67.126 Y142.142 Z5.080
F500.0
G1 X67.126 Y142.142 Z-10.000
F2000.0
G03 X67.026 Y142.042 I0.000 J-0.100
G03 X67.126 Y141.942 I0.100 J0.000
G03 X67.226 Y142.042 I0.000 J0.100
G03 X67.126 Y142.142 I-0.100 J0.000
F2000.0
G01 X67.126 Y144.542 Z-10.000
F2000.0
G03 X64.626 Y142.042 I0.000 J-2.500
G03 X67.126 Y139.542 I2.500 J0.000
G03 X69.626 Y142.042 I0.000 J2.500
G03 X67.126 Y144.542 I-2.500 J0.000
F2000.0
G00 X67.126 Y144.542 Z5.080
F2000.0
G00 X104.626 Y141.942 Z5.080
F500.0
G1 X104.626 Y141.942 Z-6.000
F2000.0
G03 X104.726 Y142.042 I0.000 J0.100
G03 X104.626 Y142.142 I-0.100 J0.000
G03 X104.526 Y142.042 I0.000 J-0.100
G03 X104.626 Y141.942 I0.100 J0.000
F2000.0
G01 X104.626 Y139.542 Z-6.000
F2000.0
G03 X107.126 Y142.042 I0.000 J2.500
G03 X104.626 Y144.542 I-2.500 J0.000
G03 X102.126 Y142.042 I0.000 J-2.500
G03 X104.626 Y139.542 I2.500 J0.000
F2000.0
G00 X104.626 Y139.542 Z5.080
F2000.0
G00 X104.626 Y141.942 Z5.080
F500.0
G1 X104.626 Y141.942 Z-8.000
F2000.0
G03 X104.726 Y142.042 I0.000 J0.100
G03 X104.626 Y142.142 I-0.100 J0.000
G03 X104.526 Y142.042 I0.000 J-0.100
G03 X104.626 Y141.942 I0.100 J0.000
F2000.0
G01 X104.626 Y139.542 Z-8.000
F2000.0
G03 X107.126 Y142.042 I0.000 J2.500
G03 X104.626 Y144.542 I-2.500 J0.000
G03 X102.126 Y142.042 I0.000 J-2.500
G03 X104.626 Y139.542 I2.500 J0.000
F2000.0
G00 X104.626 Y139.542 Z5.080
F2000.0
G00 X104.626 Y141.942 Z5.080
F500.0
G1 X104.626 Y141.942 Z-10.000
F2000.0
G03 X104.726 Y142.042 I0.000 J0.100
G03 X104.626 Y142.142 I-0.100 J0.000
G03 X104.526 Y142.042 I0.000 J-0.100
G03 X104.626 Y141.942 I0.100 J0.000
F2000.0
G01 X104.626 Y139.542 Z-10.000
F2000.0
G03 X107.126 Y142.042 I0.000 J2.500
G03 X104.626 Y144.542 I-2.500 J0.000
G03 X102.126 Y142.042 I0.000 J-2.500
G03 X104.626 Y139.542 I2.500 J0.000
F2000.0
G00 X104.626 Y139.542 Z5.080
F2000.0
G00 X104.726 Y104.542 Z5.080
F500.0
G1 X104.726 Y104.542 Z-6.000
F2000.0
G03 X104.626 Y104.642 I-0.100 J0.000
G03 X104.526 Y104.542 I0.000 J-0.100
G03 X104.626 Y104.442 I0.100 J0.000
G03 X104.726 Y104.542 I0.000 J0.100
F2000.0
G01 X107.126 Y104.542 Z-6.000
F2000.0
G03 X104.626 Y107.042 I-2.500 J0.000
G03 X102.126 Y104.542 I0.000 J-2.500
G03 X104.626 Y102.042 I2.500 J0.000
G03 X107.126 Y104.542 I0.000 J2.500
F2000.0
G00 X107.126 Y104.542 Z5.080
F2000.0
G00 X104.726 Y104.542 Z5.080
F500.0
G1 X104.726 Y104.542 Z-8.000
F2000.0
G03 X104.626 Y104.642 I-0.100 J0.000
G03 X104.526 Y104.542 I0.000 J-0.100
G03 X104.626 Y104.442 I0.100 J0.000
G03 X104.726 Y104.542 I0.000 J0.100
F2000.0
G01 X107.126 Y104.542 Z-8.000
F2000.0
G03 X104.626 Y107.042 I-2.500 J0.000
G03 X102.126 Y104.542 I0.000 J-2.500
G03 X104.626 Y102.042 I2.500 J0.000
G03 X107.126 Y104.542 I0.000 J2.500
F2000.0
G00 X107.126 Y104.542 Z5.080
F2000.0
G00 X104.726 Y104.542 Z5.080
F500.0
G1 X104.726 Y104.542 Z-10.000
F2000.0
G03 X104.626 Y104.642 I-0.100 J0.000
G03 X104.526 Y104.542 I0.000 J-0.100
G03 X104.626 Y104.442 I0.100 J0.000
G03 X104.726 Y104.542 I0.000 J0.100
F2000.0
G01 X107.126 Y104.542 Z-10.000
F2000.0
G03 X104.626 Y107.042 I-2.500 J0.000
G03 X102.126 Y104.542 I0.000 J-2.500
G03 X104.626 Y102.042 I2.500 J0.000
G03 X107.126 Y104.542 I0.000 J2.500
F2000.0
G00 X107.126 Y104.542 Z5.080
F2000.0
G00 X142.026 Y104.542 Z5.080
F500.0
G1 X142.026 Y104.542 Z-6.000
F2000.0
G03 X142.126 Y104.442 I0.100 J0.000
G03 X142.226 Y104.542 I0.000 J0.100
G03 X142.126 Y104.642 I-0.100 J0.000
G03 X142.026 Y104.542 I0.000 J-0.100
F2000.0
G01 X139.626 Y104.542 Z-6.000
F2000.0
G03 X142.126 Y102.042 I2.500 J0.000
G03 X144.626 Y104.542 I0.000 J2.500
G03 X142.126 Y107.042 I-2.500 J0.000
G03 X139.626 Y104.542 I0.000 J-2.500
F2000.0
G00 X139.626 Y104.542 Z5.080
F2000.0
G00 X142.026 Y104.542 Z5.080
F500.0
G1 X142.026 Y104.542 Z-8.000
F2000.0
G03 X142.126 Y104.442 I0.100 J0.000
G03 X142.226 Y104.542 I0.000 J0.100
G03 X142.126 Y104.642 I-0.100 J0.000
G03 X142.026 Y104.542 I0.000 J-0.100
F2000.0
G01 X139.626 Y104.542 Z-8.000
F2000.0
G03 X142.126 Y102.042 I2.500 J0.000
G03 X144.626 Y104.542 I0.000 J2.500
G03 X142.126 Y107.042 I-2.500 J0.000
G03 X139.626 Y104.542 I0.000 J-2.500
F2000.0
G00 X139.626 Y104.542 Z5.080
F2000.0
G00 X142.026 Y104.542 Z5.080
F500.0
G1 X142.026 Y104.542 Z-10.000
F2000.0
G03 X142.126 Y104.442 I0.100 J0.000
G03 X142.226 Y104.542 I0.000 J0.100
G03 X142.126 Y104.642 I-0.100 J0.000
G03 X142.026 Y104.542 I0.000 J-0.100
F2000.0
G01 X139.626 Y104.542 Z-10.000
F2000.0
G03 X142.126 Y102.042 I2.500 J0.000
G03 X144.626 Y104.542 I0.000 J2.500
G03 X142.126 Y107.042 I-2.500 J0.000
G03 X139.626 Y104.542 I0.000 J-2.500
F2000.0
G00 X139.626 Y104.542 Z5.080
F2000.0
G00 X142.026 Y142.042 Z5.080
F500.0
G1 X142.026 Y142.042 Z-6.000
F2000.0
G03 X142.126 Y141.942 I0.100 J0.000
G03 X142.226 Y142.042 I0.000 J0.100
G03 X142.126 Y142.142 I-0.100 J0.000
G03 X142.026 Y142.042 I0.000 J-0.100
F2000.0
G01 X139.626 Y142.042 Z-6.000
F2000.0
G03 X142.126 Y139.542 I2.500 J0.000
G03 X144.626 Y142.042 I0.000 J2.500
G03 X142.126 Y144.542 I-2.500 J0.000
G03 X139.626 Y142.042 I0.000 J-2.500
F2000.0
G00 X139.626 Y142.042 Z5.080
F2000.0
G00 X142.026 Y142.042 Z5.080
F500.0
G1 X142.026 Y142.042 Z-8.000
F2000.0
G03 X142.126 Y141.942 I0.100 J0.000
G03 X142.226 Y142.042 I0.000 J0.100
G03 X142.126 Y142.142 I-0.100 J0.000
G03 X142.026 Y142.042 I0.000 J-0.100
F2000.0
G01 X139.626 Y142.042 Z-8.000
F2000.0
G03 X142.126 Y139.542 I2.500 J0.000
G03 X144.626 Y142.042 I0.000 J2.500
G03 X142.126 Y144.542 I-2.500 J0.000
G03 X139.626 Y142.042 I0.000 J-2.500
F2000.0
G00 X139.626 Y142.042 Z5.080
F2000.0
G00 X142.026 Y142.042 Z5.080
F500.0
G1 X142.026 Y142.042 Z-10.000
F2000.0
G03 X142.126 Y141.942 I0.100 J0.000
G03 X142.226 Y142.042 I0.000 J0.100
G03 X142.126 Y142.142 I-0.100 J0.000
G03 X142.026 Y142.042 I0.000 J-0.100
F2000.0
G01 X139.626 Y142.042 Z-10.000
F2000.0
G03 X142.126 Y139.542 I2.500 J0.000
G03 X144.626 Y142.042 I0.000 J2.500
G03 X142.126 Y144.542 I-2.500 J0.000
G03 X139.626 Y142.042 I0.000 J-2.500
F2000.0
G00 X139.626 Y142.042 Z5.080
F2000.0
G00 X142.026 Y67.042 Z5.080
F500.0
G1 X142.026 Y67.042 Z-6.000
F2000.0
G03 X142.126 Y66.942 I0.100 J0.000
G03 X142.226 Y67.042 I0.000 J0.100
G03 X142.126 Y67.142 I-0.100 J0.000
G03 X142.026 Y67.042 I0.000 J-0.100
F2000.0
G01 X139.626 Y67.042 Z-6.000
F2000.0
G03 X142.126 Y64.542 I2.500 J0.000
G03 X144.626 Y67.042 I0.000 J2.500
G03 X142.126 Y69.542 I-2.500 J0.000
G03 X139.626 Y67.042 I0.000 J-2.500
F2000.0
G00 X139.626 Y67.042 Z5.080
F2000.0
G00 X142.026 Y67.042 Z5.080
F500.0
G1 X142.026 Y67.042 Z-8.000
F2000.0
G03 X142.126 Y66.942 I0.100 J0.000
G03 X142.226 Y67.042 I0.000 J0.100
G03 X142.126 Y67.142 I-0.100 J0.000
G03 X142.026 Y67.042 I0.000 J-0.100
F2000.0
G01 X139.626 Y67.042 Z-8.000
F2000.0
G03 X142.126 Y64.542 I2.500 J0.000
G03 X144.626 Y67.042 I0.000 J2.500
G03 X142.126 Y69.542 I-2.500 J0.000
G03 X139.626 Y67.042 I0.000 J-2.500
F2000.0
G00 X139.626 Y67.042 Z5.080
F2000.0
G00 X142.026 Y67.042 Z5.080
F500.0
G1 X142.026 Y67.042 Z-10.000
F2000.0
G03 X142.126 Y66.942 I0.100 J0.000
G03 X142.226 Y67.042 I0.000 J0.100
G03 X142.126 Y67.142 I-0.100 J0.000
G03 X142.026 Y67.042 I0.000 J-0.100
F2000.0
G01 X139.626 Y67.042 Z-10.000
F2000.0
G03 X142.126 Y64.542 I2.500 J0.000
G03 X144.626 Y67.042 I0.000 J2.500
G03 X142.126 Y69.542 I-2.500 J0.000
G03 X139.626 Y67.042 I0.000 J-2.500
F2000.0
G00 X139.626 Y67.042 Z5.080
F2000.0
G00 X104.626 Y66.942 Z5.080
F500.0
G1 X104.626 Y66.942 Z-6.000
F2000.0
G03 X104.726 Y67.042 I0.000 J0.100
G03 X104.626 Y67.142 I-0.100 J0.000
G03 X104.526 Y67.042 I0.000 J-0.100
G03 X104.626 Y66.942 I0.100 J0.000
F2000.0
G01 X104.626 Y64.542 Z-6.000
F2000.0
G03 X107.126 Y67.042 I0.000 J2.500
G03 X104.626 Y69.542 I-2.500 J0.000
G03 X102.126 Y67.042 I0.000 J-2.500
G03 X104.626 Y64.542 I2.500 J0.000
F2000.0
G00 X104.626 Y64.542 Z5.080
F2000.0
G00 X104.626 Y66.942 Z5.080
F500.0
G1 X104.626 Y66.942 Z-8.000
F2000.0
G03 X104.726 Y67.042 I0.000 J0.100
G03 X104.626 Y67.142 I-0.100 J0.000
G03 X104.526 Y67.042 I0.000 J-0.100
G03 X104.626 Y66.942 I0.100 J0.000
F2000.0
G01 X104.626 Y64.542 Z-8.000
F2000.0
G03 X107.126 Y67.042 I0.000 J2.500
G03 X104.626 Y69.542 I-2.500 J0.000
G03 X102.126 Y67.042 I0.000 J-2.500
G03 X104.626 Y64.542 I2.500 J0.000
F2000.0
G00 X104.626 Y64.542 Z5.080
F2000.0
G00 X104.626 Y66.942 Z5.080
F500.0
G1 X104.626 Y66.942 Z-10.000
F2000.0
G03 X104.726 Y67.042 I0.000 J0.100
G03 X104.626 Y67.142 I-0.100 J0.000
G03 X104.526 Y67.042 I0.000 J-0.100
G03 X104.626 Y66.942 I0.100 J0.000
F2000.0
G01 X104.626 Y64.542 Z-10.000
F2000.0
G03 X107.126 Y67.042 I0.000 J2.500
G03 X104.626 Y69.542 I-2.500 J0.000
G03 X102.126 Y67.042 I0.000 J-2.500
G03 X104.626 Y64.542 I2.500 J0.000
F2000.0
G00 X104.626 Y64.542 Z5.080
F2000.0
G00 X104.626 Y29.442 Z5.080
F500.0
G1 X104.626 Y29.442 Z-6.000
F2000.0
G03 X104.726 Y29.542 I0.000 J0.100
G03 X104.626 Y29.642 I-0.100 J0.000
G03 X104.526 Y29.542 I0.000 J-0.100
G03 X104.626 Y29.442 I0.100 J0.000
F2000.0
G01 X104.626 Y27.042 Z-6.000
F2000.0
G03 X107.126 Y29.542 I0.000 J2.500
G03 X104.626 Y32.042 I-2.500 J0.000
G03 X102.126 Y29.542 I0.000 J-2.500
G03 X104.626 Y27.042 I2.500 J0.000
F2000.0
G00 X104.626 Y27.042 Z5.080
F2000.0
G00 X104.626 Y29.442 Z5.080
F500.0
G1 X104.626 Y29.442 Z-8.000
F2000.0
G03 X104.726 Y29.542 I0.000 J0.100
G03 X104.626 Y29.642 I-0.100 J0.000
G03 X104.526 Y29.542 I0.000 J-0.100
G03 X104.626 Y29.442 I0.100 J0.000
F2000.0
G01 X104.626 Y27.042 Z-8.000
F2000.0
G03 X107.126 Y29.542 I0.000 J2.500
G03 X104.626 Y32.042 I-2.500 J0.000
G03 X102.126 Y29.542 I0.000 J-2.500
G03 X104.626 Y27.042 I2.500 J0.000
F2000.0
G00 X104.626 Y27.042 Z5.080
F2000.0
G00 X104.626 Y29.442 Z5.080
F500.0
G1 X104.626 Y29.442 Z-10.000
F2000.0
G03 X104.726 Y29.542 I0.000 J0.100
G03 X104.626 Y29.642 I-0.100 J0.000
G03 X104.526 Y29.542 I0.000 J-0.100
G03 X104.626 Y29.442 I0.100 J0.000
F2000.0
G01 X104.626 Y27.042 Z-10.000
F2000.0
G03 X107.126 Y29.542 I0.000 J2.500
G03 X104.626 Y32.042 I-2.500 J0.000
G03 X102.126 Y29.542 I0.000 J-2.500
G03 X104.626 Y27.042 I2.500 J0.000
F2000.0
G00 X104.626 Y27.042 Z5.080
F2000.0
G00 X142.026 Y29.542 Z5.080
F500.0
G1 X142.026 Y29.542 Z-6.000
F2000.0
G03 X142.126 Y29.442 I0.100 J0.000
G03 X142.226 Y29.542 I0.000 J0.100
G03 X142.126 Y29.642 I-0.100 J0.000
G03 X142.026 Y29.542 I0.000 J-0.100
F2000.0
G01 X139.626 Y29.542 Z-6.000
F2000.0
G03 X142.126 Y27.042 I2.500 J0.000
G03 X144.626 Y29.542 I0.000 J2.500
G03 X142.126 Y32.042 I-2.500 J0.000
G03 X139.626 Y29.542 I0.000 J-2.500
F2000.0
G00 X139.626 Y29.542 Z5.080
F2000.0
G00 X142.026 Y29.542 Z5.080
F500.0
G1 X142.026 Y29.542 Z-8.000
F2000.0
G03 X142.126 Y29.442 I0.100 J0.000
G03 X142.226 Y29.542 I0.000 J0.100
G03 X142.126 Y29.642 I-0.100 J0.000
G03 X142.026 Y29.542 I0.000 J-0.100
F2000.0
G01 X139.626 Y29.542 Z-8.000
F2000.0
G03 X142.126 Y27.042 I2.500 J0.000
G03 X144.626 Y29.542 I0.000 J2.500
G03 X142.126 Y32.042 I-2.500 J0.000
G03 X139.626 Y29.542 I0.000 J-2.500
F2000.0
G00 X139.626 Y29.542 Z5.080
F2000.0
G00 X142.026 Y29.542 Z5.080
F500.0
G1 X142.026 Y29.542 Z-10.000
F2000.0
G03 X142.126 Y29.442 I0.100 J0.000
G03 X142.226 Y29.542 I0.000 J0.100
G03 X142.126 Y29.642 I-0.100 J0.000
G03 X142.026 Y29.542 I0.000 J-0.100
F2000.0
G01 X139.626 Y29.542 Z-10.000
F2000.0
G03 X142.126 Y27.042 I2.500 J0.000
G03 X144.626 Y29.542 I0.000 J2.500
G03 X142.126 Y32.042 I-2.500 J0.000
G03 X139.626 Y29.542 I0.000 J-2.500
F2000.0
G00 X139.626 Y29.542 Z5.080
F2000.0
G00 X67.126 Y104.442 Z5.080
F500.0
G1 X67.126 Y104.442 Z-6.000
F2000.0
G03 X67.226 Y104.542 I0.000 J0.100
G03 X67.126 Y104.642 I-0.100 J0.000
G03 X67.026 Y104.542 I0.000 J-0.100
G03 X67.126 Y104.442 I0.100 J0.000
F2000.0
G01 X67.126 Y102.042 Z-6.000
F2000.0
G03 X69.626 Y104.542 I0.000 J2.500
G03 X67.126 Y107.042 I-2.500 J0.000
G03 X64.626 Y104.542 I0.000 J-2.500
G03 X67.126 Y102.042 I2.500 J0.000
F2000.0
G00 X67.126 Y102.042 Z5.080
F2000.0
G00 X67.126 Y104.442 Z5.080
F500.0
G1 X67.126 Y104.442 Z-8.000
F2000.0
G03 X67.226 Y104.542 I0.000 J0.100
G03 X67.126 Y104.642 I-0.100 J0.000
G03 X67.026 Y104.542 I0.000 J-0.100
G03 X67.126 Y104.442 I0.100 J0.000
F2000.0
G01 X67.126 Y102.042 Z-8.000
F2000.0
G03 X69.626 Y104.542 I0.000 J2.500
G03 X67.126 Y107.042 I-2.500 J0.000
G03 X64.626 Y104.542 I0.000 J-2.500
G03 X67.126 Y102.042 I2.500 J0.000
F2000.0
G00 X67.126 Y102.042 Z5.080
F2000.0
G00 X67.126 Y104.442 Z5.080
F500.0
G1 X67.126 Y104.442 Z-10.000
F2000.0
G03 X67.226 Y104.542 I0.000 J0.100
G03 X67.126 Y104.642 I-0.100 J0.000
G03 X67.026 Y104.542 I0.000 J-0.100
G03 X67.126 Y104.442 I0.100 J0.000
F2000.0
G01 X67.126 Y102.042 Z-10.000
F2000.0
G03 X69.626 Y104.542 I0.000 J2.500
G03 X67.126 Y107.042 I-2.500 J0.000
G03 X64.626 Y104.542 I0.000 J-2.500
G03 X67.126 Y102.042 I2.500 J0.000
F2000.0
G00 X67.126 Y102.042 Z5.080
(|---------------------------------------)
(| Toolpath:- 'Spanner'     )
(|---------------------------------------)
S18000
G04 P5
F2000.0
G00 X19.846 Y174.735 Z5.080
F500.0
G1 X19.846 Y174.735 Z-2.000
F2000.0
G01 X19.844 Y174.732 Z-2.000
G01 X19.844 Y170.732 Z-2.000
G01 X19.846 Y170.730 Z-2.000
G01 X149.846 Y170.730 Z-2.000
G01 X149.848 Y170.732 Z-2.000
G01 X149.848 Y174.733 Z-2.000
G01 X149.846 Y174.735 Z-2.000
G01 X19.846 Y174.735 Z-2.000
F2000.0
G00 X19.846 Y174.735 Z5.080
F500.0
G1 X19.846 Y174.735 Z-4.000
F2000.0
G01 X19.844 Y174.732 Z-4.000
G01 X19.844 Y170.732 Z-4.000
G01 X19.846 Y170.730 Z-4.000
G01 X149.846 Y170.730 Z-4.000
G01 X149.848 Y170.732 Z-4.000
G01 X149.848 Y174.733 Z-4.000
G01 X149.846 Y174.735 Z-4.000
G01 X19.846 Y174.735 Z-4.000
F2000.0
G00 X19.846 Y174.735 Z5.080
F500.0
G1 X19.846 Y174.735 Z-6.000
F2000.0
G01 X19.844 Y174.732 Z-6.000
G01 X19.844 Y170.732 Z-6.000
G01 X19.846 Y170.730 Z-6.000
G01 X149.846 Y170.730 Z-6.000
G01 X149.848 Y170.732 Z-6.000
G01 X149.848 Y174.733 Z-6.000
G01 X149.846 Y174.735 Z-6.000
G01 X19.846 Y174.735 Z-6.000
F2000.0
G00 X19.846 Y174.735 Z5.080
F500.0
G1 X19.846 Y174.735 Z-8.000
F2000.0
G01 X19.844 Y174.732 Z-8.000
G01 X19.844 Y170.732 Z-8.000
G01 X19.846 Y170.730 Z-8.000
G01 X149.846 Y170.730 Z-8.000
G01 X149.848 Y170.732 Z-8.000
G01 X149.848 Y174.733 Z-8.000
G01 X149.846 Y174.735 Z-8.000
G01 X19.846 Y174.735 Z-8.000
F2000.0
G00 X19.846 Y174.735 Z5.080
F500.0
G1 X19.846 Y174.735 Z-10.000
F2000.0
G01 X19.844 Y174.732 Z-10.000
G01 X19.844 Y170.732 Z-10.000
G01 X19.846 Y170.730 Z-10.000
G01 X149.846 Y170.730 Z-10.000
G01 X149.848 Y170.732 Z-10.000
G01 X149.848 Y174.733 Z-10.000
G01 X149.846 Y174.735 Z-10.000
G01 X19.846 Y174.735 Z-10.000
F2000.0
G00 X19.846 Y174.735 Z5.080
F2000.0
G00 X19.255 Y194.712 Z5.080
F500.0
G1 X19.255 Y194.712 Z-2.000
F2000.0
G01 X19.252 Y194.709 Z-2.000
G01 X19.252 Y190.709 Z-2.000
G01 X19.255 Y190.707 Z-2.000
G01 X149.255 Y190.707 Z-2.000
G01 X149.257 Y190.709 Z-2.000
G01 X149.257 Y194.709 Z-2.000
G01 X149.255 Y194.712 Z-2.000
G01 X19.255 Y194.712 Z-2.000
F2000.0
G00 X19.255 Y194.712 Z5.080
F500.0
G1 X19.255 Y194.712 Z-4.000
F2000.0
G01 X19.252 Y194.709 Z-4.000
G01 X19.252 Y190.709 Z-4.000
G01 X19.255 Y190.707 Z-4.000
G01 X149.255 Y190.707 Z-4.000
G01 X149.257 Y190.709 Z-4.000
G01 X149.257 Y194.709 Z-4.000
G01 X149.255 Y194.712 Z-4.000
G01 X19.255 Y194.712 Z-4.000
F2000.0
G00 X19.255 Y194.712 Z5.080
F500.0
G1 X19.255 Y194.712 Z-6.000
F2000.0
G01 X19.252 Y194.709 Z-6.000
G01 X19.252 Y190.709 Z-6.000
G01 X19.255 Y190.707 Z-6.000
G01 X149.255 Y190.707 Z-6.000
G01 X149.257 Y190.709 Z-6.000
G01 X149.257 Y194.709 Z-6.000
G01 X149.255 Y194.712 Z-6.000
G01 X19.255 Y194.712 Z-6.000
F2000.0
G00 X19.255 Y194.712 Z5.080
F500.0
G1 X19.255 Y194.712 Z-8.000
F2000.0
G01 X19.252 Y194.709 Z-8.000
G01 X19.252 Y190.709 Z-8.000
G01 X19.255 Y190.707 Z-8.000
G01 X149.255 Y190.707 Z-8.000
G01 X149.257 Y190.709 Z-8.000
G01 X149.257 Y194.709 Z-8.000
G01 X149.255 Y194.712 Z-8.000
G01 X19.255 Y194.712 Z-8.000
F2000.0
G00 X19.255 Y194.712 Z5.080
F500.0
G1 X19.255 Y194.712 Z-10.000
F2000.0
G01 X19.252 Y194.709 Z-10.000
G01 X19.252 Y190.709 Z-10.000
G01 X19.255 Y190.707 Z-10.000
G01 X149.255 Y190.707 Z-10.000
G01 X149.257 Y190.709 Z-10.000
G01 X149.257 Y194.709 Z-10.000
G01 X149.255 Y194.712 Z-10.000
G01 X19.255 Y194.712 Z-10.000
F2000.0
G00 X19.255 Y194.712 Z5.080
(|---------------------------------------)
(| Toolpath:- 'Final'     )
(|---------------------------------------)
S18000
G04 P5
F2000.0
G00 X7.346 Y10.440 Z5.080
F500.0
G1 X7.346 Y10.440 Z-1.814
F2000.0
G01 X7.346 Y47.013 Z-1.814
G01 X7.346 Y54.013 Z-1.814
G01 X7.346 Y162.964 Z-1.814
G01 X7.346 Y169.964 Z-1.814
G01 X7.346 Y205.440 Z-1.814
F2000.0
G02 X12.346 Y210.440 I5.000 J0.000
F2000.0
G01 X81.895 Y210.440 Z-1.814
G01 X88.895 Y210.440 Z-1.814
G01 X157.346 Y210.440 Z-1.814
F2000.0
G02 X162.346 Y205.440 I0.000 J-5.000
F2000.0
G01 X162.346 Y168.866 Z-1.814
G01 X162.346 Y161.866 Z-1.814
G01 X162.346 Y52.915 Z-1.814
G01 X162.346 Y45.915 Z-1.814
G01 X162.346 Y10.440 Z-1.814
F2000.0
G02 X157.346 Y5.440 I-5.000 J0.000
F2000.0
G01 X87.797 Y5.440 Z-1.814
G01 X80.797 Y5.440 Z-1.814
G01 X12.346 Y5.440 Z-1.814
F2000.0
G02 X7.346 Y10.440 I0.000 J5.000
F500.0
G1 X7.346 Y10.440 Z-3.629
F2000.0
G01 X7.346 Y47.013 Z-3.629
G01 X7.346 Y54.013 Z-3.629
G01 X7.346 Y162.964 Z-3.629
G01 X7.346 Y169.964 Z-3.629
G01 X7.346 Y205.440 Z-3.629
F2000.0
G02 X12.346 Y210.440 I5.000 J0.000
F2000.0
G01 X81.895 Y210.440 Z-3.629
G01 X88.895 Y210.440 Z-3.629
G01 X157.346 Y210.440 Z-3.629
F2000.0
G02 X162.346 Y205.440 I0.000 J-5.000
F2000.0
G01 X162.346 Y168.866 Z-3.629
G01 X162.346 Y161.866 Z-3.629
G01 X162.346 Y52.915 Z-3.629
G01 X162.346 Y45.915 Z-3.629
G01 X162.346 Y10.440 Z-3.629
F2000.0
G02 X157.346 Y5.440 I-5.000 J0.000
F2000.0
G01 X87.797 Y5.440 Z-3.629
G01 X80.797 Y5.440 Z-3.629
G01 X12.346 Y5.440 Z-3.629
F2000.0
G02 X7.346 Y10.440 I0.000 J5.000
F500.0
G1 X7.346 Y10.440 Z-5.443
F2000.0
G01 X7.346 Y47.013 Z-5.443
G01 X7.346 Y54.013 Z-5.443
G01 X7.346 Y162.964 Z-5.443
G01 X7.346 Y169.964 Z-5.443
G01 X7.346 Y205.440 Z-5.443
F2000.0
G02 X12.346 Y210.440 I5.000 J0.000
F2000.0
G01 X81.895 Y210.440 Z-5.443
G01 X88.895 Y210.440 Z-5.443
G01 X157.346 Y210.440 Z-5.443
F2000.0
G02 X162.346 Y205.440 I0.000 J-5.000
F2000.0
G01 X162.346 Y168.866 Z-5.443
G01 X162.346 Y161.866 Z-5.443
G01 X162.346 Y52.915 Z-5.443
G01 X162.346 Y45.915 Z-5.443
G01 X162.346 Y10.440 Z-5.443
F2000.0
G02 X157.346 Y5.440 I-5.000 J0.000
F2000.0
G01 X87.797 Y5.440 Z-5.443
G01 X80.797 Y5.440 Z-5.443
G01 X12.346 Y5.440 Z-5.443
F2000.0
G02 X7.346 Y10.440 I0.000 J5.000
F500.0
G1 X7.346 Y10.440 Z-7.257
F2000.0
G01 X7.346 Y47.013 Z-7.257
G01 X7.346 Y54.013 Z-7.257
G01 X7.346 Y162.964 Z-7.257
G01 X7.346 Y169.964 Z-7.257
G01 X7.346 Y205.440 Z-7.257
F2000.0
G02 X12.346 Y210.440 I5.000 J0.000
F2000.0
G01 X81.895 Y210.440 Z-7.257
G01 X88.895 Y210.440 Z-7.257
G01 X157.346 Y210.440 Z-7.257
F2000.0
G02 X162.346 Y205.440 I0.000 J-5.000
F2000.0
G01 X162.346 Y168.866 Z-7.257
G01 X162.346 Y161.866 Z-7.257
G01 X162.346 Y52.915 Z-7.257
G01 X162.346 Y45.915 Z-7.257
G01 X162.346 Y10.440 Z-7.257
F2000.0
G02 X157.346 Y5.440 I-5.000 J0.000
F2000.0
G01 X87.797 Y5.440 Z-7.257
G01 X80.797 Y5.440 Z-7.257
G01 X12.346 Y5.440 Z-7.257
F2000.0
G02 X7.346 Y10.440 I0.000 J5.000
F500.0
G1 X7.346 Y10.440 Z-9.071
F2000.0
G01 X7.346 Y47.013 Z-9.071
G01 X7.346 Y54.013 Z-9.071
G01 X7.346 Y162.964 Z-9.071
G01 X7.346 Y169.964 Z-9.071
G01 X7.346 Y205.440 Z-9.071
F2000.0
G02 X12.346 Y210.440 I5.000 J0.000
F2000.0
G01 X81.895 Y210.440 Z-9.071
G01 X88.895 Y210.440 Z-9.071
G01 X157.346 Y210.440 Z-9.071
F2000.0
G02 X162.346 Y205.440 I0.000 J-5.000
F2000.0
G01 X162.346 Y168.866 Z-9.071
G01 X162.346 Y161.866 Z-9.071
G01 X162.346 Y52.915 Z-9.071
G01 X162.346 Y45.915 Z-9.071
G01 X162.346 Y10.440 Z-9.071
F2000.0
G02 X157.346 Y5.440 I-5.000 J0.000
F2000.0
G01 X87.797 Y5.440 Z-9.071
G01 X80.797 Y5.440 Z-9.071
G01 X12.346 Y5.440 Z-9.071
F2000.0
G02 X7.346 Y10.440 I0.000 J5.000
F500.0
G1 X7.346 Y10.440 Z-10.886
F2000.0
G01 X7.346 Y47.013 Z-10.886
G01 X7.346 Y47.013 Z-9.700
G01 X7.346 Y54.013 Z-9.700
F500.0
G1 X7.346 Y54.013 Z-10.886
F2000.0
G01 X7.346 Y162.964 Z-10.886
G01 X7.346 Y162.964 Z-9.700
G01 X7.346 Y169.964 Z-9.700
F500.0
G1 X7.346 Y169.964 Z-10.886
F2000.0
G01 X7.346 Y205.440 Z-10.886
F2000.0
G02 X12.346 Y210.440 I5.000 J0.000
F2000.0
G01 X81.895 Y210.440 Z-10.886
G01 X81.895 Y210.440 Z-9.700
G01 X88.895 Y210.440 Z-9.700
F500.0
G1 X88.895 Y210.440 Z-10.886
F2000.0
G01 X157.346 Y210.440 Z-10.886
F2000.0
G02 X162.346 Y205.440 I0.000 J-5.000
F2000.0
G01 X162.346 Y168.866 Z-10.886
G01 X162.346 Y168.866 Z-9.700
G01 X162.346 Y161.866 Z-9.700
F500.0
G1 X162.346 Y161.866 Z-10.886
F2000.0
G01 X162.346 Y52.915 Z-10.886
G01 X162.346 Y52.915 Z-9.700
G01 X162.346 Y45.915 Z-9.700
F500.0
G1 X162.346 Y45.915 Z-10.886
F2000.0
G01 X162.346 Y10.440 Z-10.886
F2000.0
G02 X157.346 Y5.440 I-5.000 J0.000
F2000.0
G01 X87.797 Y5.440 Z-10.886
G01 X87.797 Y5.440 Z-9.700
G01 X80.797 Y5.440 Z-9.700
F500.0
G1 X80.797 Y5.440 Z-10.886
F2000.0
G01 X12.346 Y5.440 Z-10.886
F2000.0
G02 X7.346 Y10.440 I0.000 J5.000
F500.0
G1 X7.346 Y10.440 Z-12.700
F2000.0
G01 X7.346 Y47.013 Z-12.700
G01 X7.346 Y47.013 Z-9.700
G01 X7.346 Y54.013 Z-9.700
F500.0
G1 X7.346 Y54.013 Z-12.700
F2000.0
G01 X7.346 Y162.964 Z-12.700
G01 X7.346 Y162.964 Z-9.700
G01 X7.346 Y169.964 Z-9.700
F500.0
G1 X7.346 Y169.964 Z-12.700
F2000.0
G01 X7.346 Y205.440 Z-12.700
F2000.0
G02 X12.346 Y210.440 I5.000 J0.000
F2000.0
G01 X81.895 Y210.440 Z-12.700
G01 X81.895 Y210.440 Z-9.700
G01 X88.895 Y210.440 Z-9.700
F500.0
G1 X88.895 Y210.440 Z-12.700
F2000.0
G01 X157.346 Y210.440 Z-12.700
F2000.0
G02 X162.346 Y205.440 I0.000 J-5.000
F2000.0
G01 X162.346 Y168.866 Z-12.700
G01 X162.346 Y168.866 Z-9.700
G01 X162.346 Y161.866 Z-9.700
F500.0
G1 X162.346 Y161.866 Z-12.700
F2000.0
G01 X162.346 Y52.915 Z-12.700
G01 X162.346 Y52.915 Z-9.700
G01 X162.346 Y45.915 Z-9.700
F500.0
G1 X162.346 Y45.915 Z-12.700
F2000.0
G01 X162.346 Y10.440 Z-12.700
F2000.0
G02 X157.346 Y5.440 I-5.000 J0.000
F2000.0
G01 X87.797 Y5.440 Z-12.700
G01 X87.797 Y5.440 Z-9.700
G01 X80.797 Y5.440 Z-9.700
F500.0
G1 X80.797 Y5.440 Z-12.700
F2000.0
G01 X12.346 Y5.440 Z-12.700
F2000.0
G02 X7.346 Y10.440 I0.000 J5.000
F2000.0
G00 X7.346 Y10.440 Z5.080
G00  Z20.320
G00  X0.000  Y0.000
M02
